; generated by Slic3r 1.2.9 on 2018-01-02 at 18:58:30

; external perimeters extrusion width = 0.50mm
; perimeters extrusion width = 0.50mm
; infill extrusion width = 0.50mm
; solid infill extrusion width = 0.50mm
; top infill extrusion width = 0.50mm

M107
M190 S70 ; set bed temperature
M117 Starting...
M200 D2.8500 ; set filament diameter and switch to volumetric extrusion mm in power of 3
M109 S160; set hot-end temperature to melt tip
G28 ; home all axes
M109 S190
M109 S220; set hot-end temperature to print
M208 S-0.05 F180 ; extrusion recover length and speed
M207 S0.5 F600 ; retraction

G21 ; set units to millimeters
G90 ; use absolute coordinates
M82 ; use absolute distances for extrusion
G92 E0
G10 ; retract
G92 E0
G1 Z0.320 F4800.000
G1 X47.611 Y27.489 F4800.000
G11 ; unretract
G92 E0
G1 X47.955 Y26.894 E0.07641 F1200.000
G1 X49.184 Y25.203 E0.30877
G1 X50.071 Y24.217 E0.45621
G1 X51.625 Y22.818 E0.68856
G1 X52.698 Y22.038 E0.83607
G1 X54.509 Y20.993 E1.06842
G1 X55.721 Y20.453 E1.21590
G1 X57.709 Y19.807 E1.44827
G1 X59.007 Y19.531 E1.59575
G1 X61.087 Y19.312 E1.82810
G1 X61.750 Y19.278 E1.90195
G1 X138.250 Y19.278 E10.40452
G1 X138.913 Y19.312 E10.47836
G1 X140.993 Y19.531 E10.71072 F1200.000
G1 X142.291 Y19.807 E10.85820
G1 X144.279 Y20.453 E11.09056
G1 X145.491 Y20.993 E11.23804
G1 X147.302 Y22.038 E11.47040
G1 X148.375 Y22.818 E11.61788
G1 X149.929 Y24.217 E11.85024
G1 X150.817 Y25.203 E11.99772
G1 X152.045 Y26.894 E12.23008
G1 X152.709 Y28.043 E12.37756
G1 X153.559 Y29.953 E12.60992
G1 X153.969 Y31.215 E12.75740
G1 X154.172 Y32.169 E12.86583
G1 X154.404 Y33.260 E12.98976
G1 X154.543 Y34.580 E13.13724
G1 X154.543 Y265.420 E38.79393
G1 X154.404 Y266.740 E38.94140
G1 X153.969 Y268.785 E39.17377
G1 X153.559 Y270.047 E39.32125
G1 X152.709 Y271.957 E39.55362
G1 X152.045 Y273.106 E39.70118
G1 X150.816 Y274.797 E39.93351
G1 X149.929 Y275.783 E40.08089
G1 X148.375 Y277.182 E40.31326
G1 X147.301 Y277.962 E40.46088
G1 X145.490 Y279.007 E40.69322
G1 X144.279 Y279.547 E40.84060
G1 X142.291 Y280.193 E41.07296
G1 X140.994 Y280.468 E41.22029
G1 X138.915 Y280.687 E41.45265
G1 X138.250 Y280.722 E41.52665
G1 X61.750 Y280.722 E50.02922
G1 X61.085 Y280.687 E50.10323
G1 X59.006 Y280.468 E50.33558
G1 X57.710 Y280.193 E50.48291
G1 X55.721 Y279.547 E50.71527
G1 X54.510 Y279.007 E50.86267
G1 X52.699 Y277.962 E51.09501
G1 X51.624 Y277.182 E51.24264
G1 X50.071 Y275.783 E51.47500
G1 X49.184 Y274.798 E51.62233
G1 X47.955 Y273.107 E51.85466
G1 X47.291 Y271.956 E52.00226
G1 X46.441 Y270.046 E52.23464
G1 X46.031 Y268.784 E52.38213
G1 X45.596 Y266.739 E52.61449
G1 X45.457 Y265.420 E52.76195
G1 X45.457 Y34.580 E78.41864
G1 X45.596 Y33.260 E78.56610
G1 X46.031 Y31.215 E78.79846
G1 X46.441 Y29.953 E78.94596
G1 X47.291 Y28.043 E79.17831
G1 X47.581 Y27.541 E79.24274
G10 ; retract
G92 E0
G1 X70.793 Y36.528 F4800.000
G11 ; unretract
G92 E0
G1 X129.207 Y36.528 E6.49251 F1200.000
G1 X129.207 Y34.675 E6.69847
G1 X129.603 Y32.815 E6.90973
G1 X130.376 Y31.079 E7.12100
G1 X131.493 Y29.541 E7.33227
G1 X132.906 Y28.269 E7.54353
G1 X134.552 Y27.319 E7.75480
G1 X136.360 Y26.731 E7.96607
G1 X138.250 Y26.533 E8.17733
G1 X140.140 Y26.731 E8.38860
G1 X141.948 Y27.319 E8.59987
G1 X143.594 Y28.269 E8.81113
G1 X145.007 Y29.541 E9.02240
G1 X146.124 Y31.079 E9.23367
G1 X146.897 Y32.815 E9.44493
G1 X147.293 Y34.675 E9.65620
G1 X147.293 Y36.575 E9.86747
G1 X146.897 Y38.435 E10.07873
G1 X146.539 Y39.239 E10.17662
G1 X146.124 Y40.171 E10.29000
G1 X145.007 Y41.709 E10.50127
G1 X143.594 Y42.981 E10.71253
G1 X141.948 Y43.931 E10.92380
G1 X140.140 Y44.519 E11.13507
G1 X137.347 Y44.812 E11.44721
G1 X137.347 Y255.188 E34.82932
G1 X140.140 Y255.482 E35.14147
G1 X141.948 Y256.069 E35.35275
G1 X143.594 Y257.019 E35.56400
G1 X145.007 Y258.291 E35.77527
G1 X146.124 Y259.829 E35.98651
G1 X146.897 Y261.565 E36.19779
G1 X147.293 Y263.425 E36.40907
G1 X147.293 Y265.325 E36.62028
G1 X146.897 Y267.185 E36.83156
G1 X146.124 Y268.921 E37.04284
G1 X145.007 Y270.459 E37.25408
G1 X143.594 Y271.731 E37.46535
G1 X141.948 Y272.681 E37.67660
G1 X140.140 Y273.268 E37.88788
G1 X138.250 Y273.467 E38.09914
G1 X136.360 Y273.268 E38.31041
G1 X134.552 Y272.681 E38.52169
G1 X132.906 Y271.731 E38.73294
G1 X131.493 Y270.459 E38.94421
G1 X130.376 Y268.921 E39.15545
G1 X129.603 Y267.185 E39.36673
G1 X129.207 Y265.325 E39.57801
G1 X129.207 Y263.472 E39.78394
G1 X70.793 Y263.472 E46.27645
G1 X70.793 Y265.325 E46.48237
G1 X70.397 Y267.185 E46.69366
G1 X69.624 Y268.921 E46.90493
G1 X68.507 Y270.459 E47.11618
G1 X67.094 Y271.731 E47.32745
G1 X65.448 Y272.681 E47.53869
G1 X63.640 Y273.268 E47.74998
G1 X61.750 Y273.467 E47.96124
G1 X59.860 Y273.268 E48.17250
G1 X58.052 Y272.681 E48.38379
G1 X56.406 Y271.731 E48.59504
G1 X54.993 Y270.459 E48.80631
G1 X53.876 Y268.921 E49.01755
G1 X53.103 Y267.185 E49.22883
G1 X52.707 Y265.325 E49.44011
G1 X52.707 Y263.425 E49.65131
G1 X53.103 Y261.565 E49.86260
G1 X53.876 Y259.829 E50.07387
G1 X54.993 Y258.291 E50.28512
G1 X56.406 Y257.019 E50.49639
G1 X58.052 Y256.069 E50.70763
G1 X59.860 Y255.482 E50.91892
G1 X62.653 Y255.188 E51.23106
G1 X62.653 Y44.812 E74.61318
G1 X59.860 Y44.519 E74.92532
G1 X58.052 Y43.931 E75.13659
G1 X56.406 Y42.981 E75.34786
G1 X54.993 Y41.709 E75.55912
G1 X53.876 Y40.171 E75.77039
G1 X53.103 Y38.435 E75.98165
G1 X52.707 Y36.575 E76.19292
G1 X52.707 Y34.675 E76.40419
G1 X53.103 Y32.815 E76.61546
G1 X53.876 Y31.079 E76.82672
G1 X54.993 Y29.541 E77.03799
G1 X56.406 Y28.269 E77.24925
G1 X58.052 Y27.319 E77.46052
G1 X59.860 Y26.731 E77.67179
G1 X61.750 Y26.533 E77.88306
G1 X63.640 Y26.731 E78.09432
G1 X65.448 Y27.319 E78.30559
G1 X67.094 Y28.269 E78.51686
G1 X68.507 Y29.541 E78.72812
G1 X69.624 Y31.079 E78.93939
G1 X70.397 Y32.815 E79.15066
G1 X70.793 Y34.675 E79.36192
G1 X70.793 Y36.468 E79.56121
G1 X71.140 Y36.180 F4800.000
G1 X128.860 Y36.180 E85.97651 F1200.000
G1 X128.860 Y34.638 E86.14792
G1 X129.270 Y32.707 E86.36731
G1 X130.073 Y30.904 E86.58669
G1 X131.233 Y29.307 E86.80607
G1 X132.700 Y27.987 E87.02545
G1 X134.410 Y27.000 E87.24483
G1 X136.287 Y26.390 E87.46421
G1 X138.250 Y26.183 E87.68360
G1 X140.213 Y26.390 E87.90298
G1 X142.090 Y27.000 E88.12236
G1 X143.800 Y27.987 E88.34174
G1 X145.266 Y29.307 E88.56112
G1 X146.427 Y30.904 E88.78050
G1 X147.229 Y32.707 E88.99988
G1 X147.640 Y34.638 E89.21927
G1 X147.640 Y36.612 E89.43865
G1 X147.229 Y38.543 E89.65803
G1 X146.856 Y39.381 E89.75997
G1 X146.427 Y40.346 E89.87741
G1 X145.266 Y41.943 E90.09679
G1 X143.800 Y43.263 E90.31617
G1 X142.090 Y44.250 E90.53555
G1 X140.213 Y44.860 E90.75493
G1 X137.695 Y45.125 E91.03638
G1 X137.695 Y254.875 E114.34898
G1 X140.213 Y255.140 E114.63043
G1 X142.090 Y255.750 E114.84982
G1 X143.800 Y256.737 E115.06918
G1 X145.266 Y258.058 E115.28857
G1 X146.427 Y259.654 E115.50793
G1 X147.230 Y261.458 E115.72732
G1 X147.640 Y263.388 E115.94672
G1 X147.640 Y265.362 E116.16604
G1 X147.229 Y267.292 E116.38543
G1 X146.427 Y269.096 E116.60483
G1 X145.266 Y270.692 E116.82418
G1 X143.800 Y272.013 E117.04357
G1 X142.090 Y273.000 E117.26293
G1 X140.213 Y273.610 E117.48233
G1 X138.250 Y273.817 E117.70171
G1 X136.287 Y273.610 E117.92109
G1 X134.410 Y273.000 E118.14048
G1 X132.700 Y272.013 E118.35984
G1 X131.234 Y270.692 E118.57923
G1 X130.073 Y269.096 E118.79858
G1 X129.270 Y267.292 E119.01798
G1 X128.860 Y265.362 E119.23738
G1 X128.860 Y263.820 E119.40876
G1 X71.140 Y263.820 E125.82406
G1 X71.140 Y265.362 E125.99544
G1 X70.730 Y267.292 E126.21484
G1 X69.927 Y269.096 E126.43423
G1 X68.766 Y270.692 E126.65359
G1 X67.300 Y272.013 E126.87297
G1 X65.590 Y273.000 E127.09234
G1 X63.713 Y273.610 E127.31173
G1 X61.750 Y273.817 E127.53111
G1 X59.787 Y273.610 E127.75049
G1 X57.910 Y273.000 E127.96989
G1 X56.200 Y272.013 E128.18925
G1 X54.734 Y270.692 E128.40864
G1 X53.573 Y269.096 E128.62800
G1 X52.770 Y267.292 E128.84739
G1 X52.360 Y265.362 E129.06678
G1 X52.360 Y263.388 E129.28610
G1 X52.770 Y261.458 E129.50550
G1 X53.573 Y259.654 E129.72489
G1 X54.734 Y258.058 E129.94425
G1 X56.200 Y256.737 E130.16364
G1 X57.910 Y255.750 E130.38300
G1 X59.787 Y255.140 E130.60239
G1 X62.305 Y254.875 E130.88384
G1 X62.305 Y45.125 E154.19644
G1 X59.787 Y44.860 E154.47788
G1 X57.910 Y44.250 E154.69727
G1 X56.200 Y43.263 E154.91665
G1 X54.734 Y41.943 E155.13603
G1 X53.573 Y40.346 E155.35542
G1 X52.770 Y38.543 E155.57479
G1 X52.360 Y36.612 E155.79417
G1 X52.360 Y34.638 E156.01356
G1 X52.770 Y32.707 E156.23294
G1 X53.573 Y30.904 E156.45232
G1 X54.734 Y29.307 E156.67170
G1 X56.200 Y27.987 E156.89108
G1 X57.910 Y27.000 E157.11046
G1 X59.787 Y26.390 E157.32985
G1 X61.750 Y26.183 E157.54923
G1 X63.713 Y26.390 E157.76861
G1 X65.590 Y27.000 E157.98799
G1 X67.300 Y27.987 E158.20737
G1 X68.766 Y29.307 E158.42675
G1 X69.927 Y30.904 E158.64614
G1 X70.730 Y32.707 E158.86552
G1 X71.140 Y34.638 E159.08490
G1 X71.140 Y36.120 E159.24964
G1 X71.487 Y35.833 F4800.000
G1 X128.513 Y35.833 E165.58774 F1200.000
G1 X128.513 Y34.602 E165.72460
G1 X128.938 Y32.599 E165.95210
G1 X129.771 Y30.730 E166.17959
G1 X130.974 Y29.074 E166.40709
G1 X132.495 Y27.704 E166.63459
G1 X134.268 Y26.681 E166.86208
G1 X136.214 Y26.048 E167.08958
G1 X138.250 Y25.834 E167.31707
G1 X140.286 Y26.048 E167.54457
G1 X142.232 Y26.681 E167.77207
G1 X144.005 Y27.704 E167.99956
G1 X145.526 Y29.074 E168.22706
G1 X146.729 Y30.730 E168.45456
G1 X147.562 Y32.599 E168.68205
G1 X147.987 Y34.602 E168.90955
G1 X147.987 Y36.648 E169.13704
G1 X147.562 Y38.651 E169.36454
G1 X147.174 Y39.522 E169.47054
G1 X146.729 Y40.520 E169.59204
G1 X145.526 Y42.176 E169.81953
G1 X144.005 Y43.546 E170.04703
G1 X142.232 Y44.569 E170.27452
G1 X140.286 Y45.202 E170.50202
G1 X138.042 Y45.438 E170.75276
G1 X138.042 Y254.562 E193.99586
G1 X140.286 Y254.799 E194.24660
G1 X142.232 Y255.431 E194.47410
G1 X144.005 Y256.454 E194.70158
G1 X145.526 Y257.824 E194.92909
G1 X146.729 Y259.480 E195.15656
G1 X147.562 Y261.350 E195.38407
G1 X147.987 Y263.352 E195.61158
G1 X147.987 Y265.398 E195.83901
G1 X147.562 Y267.400 E196.06652
G1 X146.729 Y269.270 E196.29403
G1 X145.526 Y270.926 E196.52150
G1 X144.005 Y272.296 E196.74901
G1 X142.232 Y273.319 E196.97649
G1 X140.286 Y273.951 E197.20399
G1 X138.250 Y274.166 E197.43149
G1 X136.214 Y273.951 E197.65899
G1 X134.268 Y273.319 E197.88648
G1 X132.495 Y272.296 E198.11396
G1 X130.974 Y270.926 E198.34147
G1 X129.771 Y269.270 E198.56894
G1 X128.938 Y267.400 E198.79645
G1 X128.513 Y265.398 E199.02396
G1 X128.513 Y264.167 E199.16080
G1 X71.487 Y264.167 E205.49889
G1 X71.487 Y265.398 E205.63572
G1 X71.062 Y267.400 E205.86323
G1 X70.229 Y269.270 E206.09075
G1 X69.026 Y270.926 E206.31822
G1 X67.505 Y272.296 E206.54572
G1 X65.732 Y273.319 E206.77320
G1 X63.786 Y273.951 E207.00070
G1 X61.750 Y274.166 E207.22820
G1 X59.714 Y273.951 E207.45570
G1 X57.768 Y273.319 E207.68320
G1 X55.995 Y272.296 E207.91068
G1 X54.474 Y270.926 E208.13818
G1 X53.271 Y269.270 E208.36566
G1 X52.438 Y267.400 E208.59317
G1 X52.013 Y265.398 E208.82068
G1 X52.013 Y263.352 E209.04811
G1 X52.438 Y261.350 E209.27562
G1 X53.271 Y259.480 E209.50313
G1 X54.474 Y257.824 E209.73060
G1 X55.995 Y256.454 E209.95810
G1 X57.768 Y255.431 E210.18558
G1 X59.714 Y254.799 E210.41309
G1 X61.958 Y254.562 E210.66383
G1 X61.958 Y45.438 E233.90692
G1 X59.714 Y45.202 E234.15766
G1 X57.768 Y44.569 E234.38517
G1 X55.995 Y43.546 E234.61266
G1 X54.474 Y42.176 E234.84015
G1 X53.271 Y40.520 E235.06766
G1 X52.438 Y38.651 E235.29515
G1 X52.013 Y36.648 E235.52264
G1 X52.013 Y34.602 E235.75014
G1 X52.438 Y32.599 E235.97764
G1 X53.271 Y30.730 E236.20513
G1 X54.474 Y29.074 E236.43263
G1 X55.995 Y27.704 E236.66012
G1 X57.768 Y26.681 E236.88762
G1 X59.714 Y26.048 E237.11512
G1 X61.750 Y25.834 E237.34262
G1 X63.786 Y26.048 E237.57011
G1 X65.732 Y26.681 E237.79761
G1 X67.505 Y27.704 E238.02511
G1 X69.026 Y29.074 E238.25260
G1 X70.229 Y30.730 E238.48010
G1 X71.062 Y32.599 E238.70760
G1 X71.487 Y34.602 E238.93509
G1 X71.487 Y35.773 E239.06529
G1 X71.487 Y36.233 F4800.000
G10 ; retract
G92 E0
G1 X69.652 Y31.725 F4800.000
G11 ; unretract
G92 E0
G1 X65.646 Y27.720 E0.62954 F1200.000
G1 X64.775 Y27.340 F4800.000
G1 X70.046 Y32.610 E1.45802 F1200.000
G1 X70.286 Y33.342 E1.54358
G1 X64.047 Y27.103 E2.52419
G1 X63.366 Y26.913 E2.60278
G1 X70.418 Y33.965 E3.71129
G1 X70.551 Y34.589 E3.78217
G1 X62.817 Y26.856 E4.99780
G1 X62.269 Y26.798 E5.05915
G1 X70.591 Y35.120 E6.36733
G1 X70.591 Y35.612 E6.42193
G1 X61.720 Y26.740 E7.81640
G1 X61.267 Y26.779 E7.86690
G1 X70.591 Y36.103 E9.33253
G1 X70.591 Y36.594 E9.38713
G1 X60.822 Y26.825 E10.92263
G1 X60.378 Y26.872 E10.97231
G1 X137.146 Y103.640 E23.03925
G1 X137.146 Y103.149 E23.09385
G1 X70.726 Y36.729 E33.53417
G1 X71.217 Y36.729 E33.58877
G1 X137.146 Y102.658 E43.95189
G1 X137.146 Y102.166 E44.00648
G1 X71.709 Y36.729 E54.29239
G1 X72.200 Y36.729 E54.34698
G1 X137.146 Y101.675 E64.55568
G1 X137.146 Y101.184 E64.61027
G1 X72.691 Y36.729 E74.74175
G1 X73.182 Y36.729 E74.79635
G1 X137.146 Y100.693 E84.85062
G1 X137.146 Y100.202 E84.90522
G1 X73.673 Y36.729 E94.88227
G1 X74.165 Y36.729 E94.93687
G1 X137.146 Y99.710 E104.83671
G1 X137.146 Y99.219 E104.89131
G1 X74.656 Y36.729 E114.71394
G1 X75.147 Y36.729 E114.76854
G1 X137.146 Y98.728 E124.51396
G1 X137.146 Y98.237 E124.56855
G1 X75.638 Y36.729 E134.23676
G1 X76.129 Y36.729 E134.29136
G1 X137.146 Y97.746 E143.88235
G1 X137.146 Y97.254 E143.93695
G1 X76.621 Y36.729 E153.45073
G1 X77.112 Y36.729 E153.50533
G1 X137.146 Y96.763 E162.94190
G1 X137.146 Y96.272 E162.99650
G1 X77.603 Y36.729 E172.35586
G1 X78.094 Y36.729 E172.41046
G1 X137.146 Y95.781 E181.69260
G1 X137.146 Y95.289 E181.74720
G1 X78.586 Y36.729 E190.95213
G1 X79.077 Y36.729 E191.00673
G1 X137.146 Y94.798 E200.13445
G1 X137.146 Y94.307 E200.18905
G1 X79.568 Y36.729 E209.23956
G1 X80.059 Y36.729 E209.29416
G1 X137.146 Y93.816 E218.26746
G1 X137.146 Y93.325 E218.32206
G1 X80.550 Y36.729 E227.21814
G1 X81.042 Y36.729 E227.27274
G1 X137.146 Y92.833 E236.09161
G1 X137.146 Y92.342 E236.14621
G1 X81.533 Y36.729 E244.88787
G1 X82.024 Y36.729 E244.94247
G1 X137.146 Y91.851 E253.60692
G1 X137.146 Y91.360 E253.66152
G1 X82.515 Y36.729 E262.24876
G1 X83.006 Y36.729 E262.30335
G1 X137.146 Y90.869 E270.81338
G1 X137.146 Y90.377 E270.86798
G1 X83.498 Y36.729 E279.30079
G1 X83.989 Y36.729 E279.35539
G1 X137.146 Y89.886 E287.71099
G1 X137.146 Y89.395 E287.76559
G1 X84.480 Y36.729 E296.04398
G1 X84.971 Y36.729 E296.09857
G1 X137.146 Y88.904 E304.29975
G1 X137.146 Y88.413 E304.35435
G1 X85.462 Y36.729 E312.47831
G1 X85.954 Y36.729 E312.53291
G1 X137.146 Y87.921 E320.57966
G1 X137.146 Y87.430 E320.63426
G1 X86.445 Y36.729 E328.60380
G1 X86.936 Y36.729 E328.65840
G1 X137.146 Y86.939 E336.55073
G1 X137.146 Y86.448 E336.60533
G1 X87.427 Y36.729 E344.42044
G1 X87.919 Y36.729 E344.47504
G1 X137.146 Y85.956 E352.21295
G1 X137.146 Y85.465 E352.26754
G1 X88.410 Y36.729 E359.92824
G1 X88.901 Y36.729 E359.98283
G1 X137.146 Y84.974 E367.56631
G1 X137.146 Y84.483 E367.62091
G1 X89.392 Y36.729 E375.12718
G1 X89.883 Y36.729 E375.18178
G1 X137.146 Y83.992 E382.61083
G1 X137.146 Y83.500 E382.66543
G1 X90.375 Y36.729 E390.01728
G1 X90.866 Y36.729 E390.07187
G1 X137.146 Y83.009 E397.34651
G1 X137.146 Y82.518 E397.40110
G1 X91.357 Y36.729 E404.59852
G1 X91.848 Y36.729 E404.65312
G1 X137.146 Y82.027 E411.77333
G1 X137.146 Y81.536 E411.82793
G1 X92.339 Y36.729 E418.87092
G1 X92.831 Y36.729 E418.92552
G1 X137.146 Y81.044 E425.89130
G1 X137.146 Y80.553 E425.94590
G1 X93.322 Y36.729 E432.83447
G1 X93.813 Y36.729 E432.88907
G1 X137.146 Y80.062 E439.70043
G1 X137.146 Y79.571 E439.75503
G1 X94.304 Y36.729 E446.48918
G1 X94.795 Y36.729 E446.54377
G1 X137.146 Y79.080 E453.20071
G1 X137.146 Y78.588 E453.25531
G1 X95.287 Y36.729 E459.83503
G1 X95.778 Y36.729 E459.88963
G1 X137.146 Y78.097 E466.39214
G1 X137.146 Y77.606 E466.44674
G1 X96.269 Y36.729 E472.87204
G1 X96.760 Y36.729 E472.92663
G1 X137.146 Y77.115 E479.27472
G1 X137.146 Y76.623 E479.32932
G1 X97.252 Y36.729 E485.60020
G1 X97.743 Y36.729 E485.65479
G1 X137.146 Y76.132 E491.84846
G1 X137.146 Y75.641 E491.90305
G1 X98.234 Y36.729 E498.01950
G1 X98.725 Y36.729 E498.07410
