; generated by Slic3r 1.2.9 on 2018-01-02 at 18:59:31

; external perimeters extrusion width = 0.50mm
; perimeters extrusion width = 0.50mm
; infill extrusion width = 0.50mm
; solid infill extrusion width = 0.50mm
; top infill extrusion width = 0.50mm

M107
M190 S70 ; set bed temperature
M117 Starting...
M200 D2.8500 ; set filament diameter and switch to volumetric extrusion mm in power of 3
M109 S160; set hot-end temperature to melt tip
G28 ; home all axes
M109 S190
M109 S220; set hot-end temperature to print
M208 S-0.05 F180 ; extrusion recover length and speed
M207 S0.5 F600 ; retraction

G21 ; set units to millimeters
G90 ; use absolute coordinates
M82 ; use absolute distances for extrusion
G92 E0
G10 ; retract
G92 E0
G1 Z0.320 F4800.000
G1 X47.521 Y27.437 F4800.000
G11 ; unretract
G92 E0
G1 X47.705 Y27.119 E0.04084 F1200.000
G1 X48.934 Y25.428 E0.27321
G1 X49.821 Y24.442 E0.42064
G1 X51.375 Y23.043 E0.65299
G1 X52.448 Y22.263 E0.80050
G1 X54.259 Y21.218 E1.03286
G1 X55.471 Y20.678 E1.18034
G1 X57.459 Y20.032 E1.41270
G1 X58.757 Y19.756 E1.56019
G1 X60.837 Y19.537 E1.79254
G1 X61.500 Y19.503 E1.86638
G1 X138.500 Y19.503 E10.42453
G1 X139.163 Y19.537 E10.49837
G1 X141.243 Y19.756 E10.73072 F1200.000
G1 X142.541 Y20.032 E10.87821
G1 X144.529 Y20.678 E11.11057
G1 X145.741 Y21.218 E11.25805
G1 X147.552 Y22.263 E11.49041
G1 X148.625 Y23.043 E11.63788
G1 X150.179 Y24.442 E11.87024
G1 X151.067 Y25.428 E12.01773
G1 X152.295 Y27.119 E12.25009
G1 X152.959 Y28.268 E12.39757
G1 X153.809 Y30.178 E12.62992
G1 X154.219 Y31.440 E12.77741
G1 X154.654 Y33.485 E13.00976
G1 X154.793 Y34.805 E13.15725
G1 X154.793 Y265.195 E38.76392
G1 X154.654 Y266.515 E38.91140
G1 X154.219 Y268.560 E39.14376
G1 X153.809 Y269.821 E39.29123
G1 X152.959 Y271.732 E39.52361
G1 X152.295 Y272.881 E39.67117
G1 X151.066 Y274.572 E39.90350
G1 X150.179 Y275.558 E40.05089
G1 X148.625 Y276.957 E40.28326
G1 X147.551 Y277.737 E40.43086
G1 X145.740 Y278.782 E40.66320
G1 X144.529 Y279.322 E40.81060
G1 X142.540 Y279.968 E41.04296
G1 X141.244 Y280.243 E41.19027
G1 X139.165 Y280.462 E41.42264
G1 X138.500 Y280.497 E41.49664
G1 X61.500 Y280.497 E50.05479
G1 X60.835 Y280.462 E50.12880
G1 X58.756 Y280.243 E50.36116
G1 X57.460 Y279.968 E50.50846
G1 X55.471 Y279.322 E50.74082
G1 X54.260 Y278.782 E50.88823
G1 X52.449 Y277.737 E51.12058
G1 X51.375 Y276.957 E51.26819
G1 X49.821 Y275.558 E51.50056
G1 X48.934 Y274.573 E51.64789
G1 X47.705 Y272.881 E51.88023
G1 X47.041 Y271.731 E52.02784
G1 X46.191 Y269.821 E52.26021
G1 X45.781 Y268.559 E52.40768
G1 X45.346 Y266.514 E52.64005
G1 X45.207 Y265.195 E52.78751
G1 X45.207 Y34.805 E78.39418
G1 X45.346 Y33.485 E78.54165
G1 X45.781 Y31.440 E78.77400
G1 X46.191 Y30.178 E78.92150
G1 X47.041 Y28.268 E79.15386
G1 X47.491 Y27.489 E79.25386
G10 ; retract
G92 E0
G1 X70.543 Y36.753 F4800.000
G11 ; unretract
G92 E0
G1 X129.457 Y36.753 E6.54808 F1200.000
G1 X129.457 Y34.900 E6.75404
G1 X129.853 Y33.040 E6.96531
G1 X130.626 Y31.304 E7.17657
G1 X131.743 Y29.766 E7.38784
G1 X133.156 Y28.494 E7.59911
G1 X134.802 Y27.544 E7.81037
G1 X136.610 Y26.956 E8.02164
G1 X138.500 Y26.758 E8.23291
G1 X140.390 Y26.956 E8.44417
G1 X142.198 Y27.544 E8.65544
G1 X143.844 Y28.494 E8.86670
G1 X145.257 Y29.766 E9.07797
G1 X146.374 Y31.304 E9.28924
G1 X147.147 Y33.040 E9.50050
G1 X147.543 Y34.900 E9.71177
G1 X147.543 Y36.800 E9.92304
G1 X147.147 Y38.660 E10.13430
G1 X146.789 Y39.464 E10.23219
G1 X146.374 Y40.396 E10.34557
G1 X145.257 Y41.934 E10.55684
G1 X143.844 Y43.206 E10.76811
G1 X142.198 Y44.156 E10.97937
G1 X140.390 Y44.744 E11.19064
G1 X137.597 Y45.037 E11.50278
G1 X137.597 Y254.963 E34.83488
G1 X140.390 Y255.257 E35.14702
G1 X142.198 Y255.844 E35.35831
G1 X143.844 Y256.794 E35.56955
G1 X145.257 Y258.066 E35.78083
G1 X146.374 Y259.604 E35.99207
G1 X147.147 Y261.340 E36.20335
G1 X147.543 Y263.200 E36.41463
G1 X147.543 Y265.100 E36.62583
G1 X147.147 Y266.960 E36.83711
G1 X146.374 Y268.696 E37.04839
G1 X145.257 Y270.234 E37.25963
G1 X143.844 Y271.506 E37.47091
G1 X142.198 Y272.456 E37.68216
G1 X140.390 Y273.043 E37.89344
G1 X138.500 Y273.242 E38.10470
G1 X136.610 Y273.043 E38.31596
G1 X134.802 Y272.456 E38.52724
G1 X133.156 Y271.506 E38.73849
G1 X131.743 Y270.234 E38.94977
G1 X130.626 Y268.696 E39.16101
G1 X129.853 Y266.960 E39.37229
G1 X129.457 Y265.100 E39.58357
G1 X129.457 Y263.247 E39.78950
G1 X70.543 Y263.247 E46.33757
G1 X70.543 Y265.100 E46.54350
G1 X70.147 Y266.960 E46.75478
G1 X69.374 Y268.696 E46.96606
G1 X68.257 Y270.234 E47.17730
G1 X66.844 Y271.506 E47.38857
G1 X65.198 Y272.456 E47.59982
G1 X63.390 Y273.043 E47.81111
G1 X61.500 Y273.242 E48.02237
G1 X59.610 Y273.043 E48.23363
G1 X57.802 Y272.456 E48.44492
G1 X56.156 Y271.506 E48.65616
G1 X54.743 Y270.234 E48.86743
G1 X53.626 Y268.696 E49.07868
G1 X52.853 Y266.960 E49.28995
G1 X52.457 Y265.100 E49.50123
G1 X52.457 Y263.200 E49.71244
G1 X52.853 Y261.340 E49.92372
G1 X53.626 Y259.604 E50.13499
G1 X54.743 Y258.066 E50.34624
G1 X56.156 Y256.794 E50.55751
G1 X57.802 Y255.844 E50.76876
G1 X59.610 Y255.257 E50.98005
G1 X62.403 Y254.963 E51.29219
G1 X62.403 Y45.037 E74.62429
G1 X59.610 Y44.744 E74.93643
G1 X57.802 Y44.156 E75.14770
G1 X56.156 Y43.206 E75.35897
G1 X54.743 Y41.934 E75.57023
G1 X53.626 Y40.396 E75.78150
G1 X52.853 Y38.660 E75.99277
G1 X52.457 Y36.800 E76.20403
G1 X52.457 Y34.900 E76.41530
G1 X52.853 Y33.040 E76.62657
G1 X53.626 Y31.304 E76.83783
G1 X54.743 Y29.766 E77.04911
G1 X56.156 Y28.494 E77.26037
G1 X57.802 Y27.544 E77.47163
G1 X59.610 Y26.956 E77.68290
G1 X61.500 Y26.758 E77.89417
G1 X63.390 Y26.956 E78.10543
G1 X65.198 Y27.544 E78.31671
G1 X66.844 Y28.494 E78.52797
G1 X68.257 Y29.766 E78.73923
G1 X69.374 Y31.304 E78.95051
G1 X70.147 Y33.040 E79.16177
G1 X70.543 Y34.900 E79.37304
G1 X70.543 Y36.693 E79.57233
G1 X70.890 Y36.405 F4800.000
G1 X129.110 Y36.405 E86.04320 F1200.000
G1 X129.110 Y34.863 E86.21461
G1 X129.520 Y32.932 E86.43399
G1 X130.323 Y31.129 E86.65337
G1 X131.483 Y29.532 E86.87276
G1 X132.950 Y28.212 E87.09214
G1 X134.660 Y27.225 E87.31152
G1 X136.537 Y26.615 E87.53090
G1 X138.500 Y26.408 E87.75028
G1 X140.463 Y26.615 E87.96966
G1 X142.340 Y27.225 E88.18904
G1 X144.050 Y28.212 E88.40842
G1 X145.516 Y29.532 E88.62781
G1 X146.677 Y31.129 E88.84719
G1 X147.479 Y32.932 E89.06657
G1 X147.890 Y34.863 E89.28595
G1 X147.890 Y36.837 E89.50533
G1 X147.479 Y38.768 E89.72471
G1 X147.106 Y39.606 E89.82666
G1 X146.677 Y40.571 E89.94409
G1 X145.516 Y42.168 E90.16348
G1 X144.050 Y43.488 E90.38286
G1 X142.340 Y44.475 E90.60224
G1 X140.463 Y45.085 E90.82162
G1 X137.945 Y45.350 E91.10306
G1 X137.945 Y254.650 E114.36565
G1 X140.463 Y254.915 E114.64710
G1 X142.340 Y255.525 E114.86649
G1 X144.050 Y256.512 E115.08585
G1 X145.516 Y257.833 E115.30524
G1 X146.677 Y259.429 E115.52460
G1 X147.479 Y261.233 E115.74399
G1 X147.890 Y263.163 E115.96339
G1 X147.890 Y265.137 E116.18271
G1 X147.479 Y267.067 E116.40210
G1 X146.677 Y268.871 E116.62150
G1 X145.516 Y270.467 E116.84085
G1 X144.050 Y271.788 E117.06024
G1 X142.340 Y272.775 E117.27961
G1 X140.463 Y273.385 E117.49900
G1 X138.500 Y273.592 E117.71838
G1 X136.537 Y273.385 E117.93776
G1 X134.660 Y272.775 E118.15715
G1 X132.950 Y271.788 E118.37651
G1 X131.483 Y270.467 E118.59590
G1 X130.323 Y268.871 E118.81526
G1 X129.520 Y267.067 E119.03465
G1 X129.110 Y265.137 E119.25405
G1 X129.110 Y263.595 E119.42543
G1 X70.890 Y263.595 E125.89630
G1 X70.890 Y265.137 E126.06768
G1 X70.480 Y267.067 E126.28708
G1 X69.677 Y268.871 E126.50647
G1 X68.516 Y270.467 E126.72583
G1 X67.050 Y271.788 E126.94521
G1 X65.340 Y272.775 E127.16458
G1 X63.463 Y273.385 E127.38397
G1 X61.500 Y273.592 E127.60335
G1 X59.537 Y273.385 E127.82273
G1 X57.660 Y272.775 E128.04213
G1 X55.950 Y271.788 E128.26149
G1 X54.484 Y270.467 E128.48088
G1 X53.323 Y268.871 E128.70024
G1 X52.520 Y267.067 E128.91963
G1 X52.110 Y265.137 E129.13902
G1 X52.110 Y263.163 E129.35834
G1 X52.520 Y261.233 E129.57774
G1 X53.323 Y259.429 E129.79713
G1 X54.484 Y257.833 E130.01649
G1 X55.950 Y256.512 E130.23588
G1 X57.660 Y255.525 E130.45524
G1 X59.537 Y254.915 E130.67464
G1 X62.055 Y254.650 E130.95608
G1 X62.055 Y45.350 E154.21867
G1 X59.537 Y45.085 E154.50011
G1 X57.660 Y44.475 E154.71950
G1 X55.950 Y43.488 E154.93888
G1 X54.484 Y42.168 E155.15825
G1 X53.323 Y40.571 E155.37764
G1 X52.520 Y38.768 E155.59702
G1 X52.110 Y36.837 E155.81640
G1 X52.110 Y34.863 E156.03578
G1 X52.520 Y32.932 E156.25516
G1 X53.323 Y31.129 E156.47454
G1 X54.484 Y29.532 E156.69393
G1 X55.950 Y28.212 E156.91331
G1 X57.660 Y27.225 E157.13269
G1 X59.537 Y26.615 E157.35207
G1 X61.500 Y26.408 E157.57145
G1 X63.463 Y26.615 E157.79083
G1 X65.340 Y27.225 E158.01022
G1 X67.050 Y28.212 E158.22960
G1 X68.516 Y29.532 E158.44898
G1 X69.677 Y31.129 E158.66837
G1 X70.480 Y32.932 E158.88774
G1 X70.890 Y34.863 E159.10712
G1 X70.890 Y36.345 E159.27187
G1 X71.237 Y36.058 F4800.000
G1 X128.763 Y36.058 E165.66553 F1200.000
G1 X128.763 Y34.827 E165.80240
G1 X129.188 Y32.824 E166.02990
G1 X130.021 Y30.955 E166.25739
G1 X131.224 Y29.299 E166.48489
G1 X132.745 Y27.929 E166.71238
G1 X134.518 Y26.906 E166.93988
G1 X136.464 Y26.273 E167.16738
G1 X138.500 Y26.059 E167.39487
G1 X140.536 Y26.273 E167.62237
G1 X142.482 Y26.906 E167.84987
G1 X144.255 Y27.929 E168.07736
G1 X145.776 Y29.299 E168.30486
G1 X146.979 Y30.955 E168.53235
G1 X147.812 Y32.824 E168.75985
G1 X148.237 Y34.827 E168.98735
G1 X148.237 Y36.873 E169.21484
G1 X147.812 Y38.876 E169.44234
G1 X147.424 Y39.747 E169.54834
G1 X146.979 Y40.745 E169.66984
G1 X145.776 Y42.401 E169.89733
G1 X144.255 Y43.771 E170.12483
G1 X142.482 Y44.794 E170.35232
G1 X140.536 Y45.427 E170.57982
G1 X138.292 Y45.663 E170.83056
G1 X138.292 Y254.337 E194.02364
G1 X140.536 Y254.574 E194.27439
G1 X142.482 Y255.206 E194.50189
G1 X144.255 Y256.229 E194.72937
G1 X145.776 Y257.599 E194.95687
G1 X146.979 Y259.255 E195.18434
G1 X147.812 Y261.125 E195.41185
G1 X148.237 Y263.127 E195.63936
G1 X148.237 Y265.173 E195.86680
G1 X147.812 Y267.175 E196.09430
G1 X146.979 Y269.045 E196.32182
G1 X145.776 Y270.701 E196.54928
G1 X144.255 Y272.071 E196.77679
G1 X142.482 Y273.094 E197.00427
G1 X140.536 Y273.726 E197.23177
G1 X138.500 Y273.941 E197.45927
G1 X136.464 Y273.726 E197.68677
G1 X134.518 Y273.094 E197.91427
G1 X132.745 Y272.071 E198.14175
G1 X131.224 Y270.701 E198.36925
G1 X130.021 Y269.045 E198.59672
G1 X129.188 Y267.175 E198.82424
G1 X128.763 Y265.173 E199.05174
G1 X128.763 Y263.942 E199.18858
G1 X71.237 Y263.942 E205.58225
G1 X71.237 Y265.173 E205.71908
G1 X70.812 Y267.175 E205.94659
G1 X69.979 Y269.045 E206.17410
G1 X68.776 Y270.701 E206.40157
G1 X67.255 Y272.071 E206.62907
G1 X65.482 Y273.094 E206.85655
G1 X63.536 Y273.726 E207.08406
G1 X61.500 Y273.941 E207.31156
G1 X59.464 Y273.726 E207.53905
G1 X57.518 Y273.094 E207.76656
G1 X55.745 Y272.071 E207.99404
G1 X54.224 Y270.701 E208.22154
G1 X53.021 Y269.045 E208.44901
G1 X52.188 Y267.175 E208.67652
G1 X51.763 Y265.173 E208.90403
G1 X51.763 Y263.127 E209.13146
G1 X52.188 Y261.125 E209.35897
G1 X53.021 Y259.255 E209.58648
G1 X54.224 Y257.599 E209.81396
G1 X55.745 Y256.229 E210.04145
G1 X57.518 Y255.206 E210.26894
G1 X59.464 Y254.574 E210.49644
G1 X61.708 Y254.337 E210.74718
G1 X61.708 Y45.663 E233.94026
G1 X59.464 Y45.427 E234.19100
G1 X57.518 Y44.794 E234.41851
G1 X55.745 Y43.771 E234.64600
G1 X54.224 Y42.401 E234.87349
G1 X53.021 Y40.745 E235.10099
G1 X52.188 Y38.876 E235.32849
G1 X51.763 Y36.873 E235.55599
G1 X51.763 Y34.827 E235.78348
G1 X52.188 Y32.824 E236.01098
G1 X53.021 Y30.955 E236.23847
G1 X54.224 Y29.299 E236.46598
G1 X55.745 Y27.929 E236.69346
G1 X57.518 Y26.906 E236.92096
G1 X59.464 Y26.273 E237.14846
G1 X61.500 Y26.059 E237.37596
G1 X63.536 Y26.273 E237.60345
G1 X65.482 Y26.906 E237.83095
G1 X67.255 Y27.929 E238.05845
G1 X68.776 Y29.299 E238.28594
G1 X69.979 Y30.955 E238.51344
G1 X70.812 Y32.824 E238.74093
G1 X71.237 Y34.827 E238.96843
G1 X71.237 Y35.998 E239.09863
G1 X71.237 Y36.458 F4800.000
G1 X70.341 Y36.331 F4800.000
G1 X61.014 Y27.004 E240.56498 F1200.000
G1 X61.466 Y26.965 E240.61542
G1 X70.341 Y35.840 E242.01070
G1 X70.341 Y35.349 E242.06531
G1 X62.015 Y27.023 E243.37429
G1 X62.564 Y27.080 E243.43565
G1 X70.302 Y34.818 E244.65217
G1 X70.169 Y34.194 E244.72308
G1 X63.113 Y27.138 E245.83245
G1 X63.793 Y27.327 E245.91091
G1 X70.037 Y33.571 E246.89252
G1 X69.798 Y32.841 E246.97788
G1 X64.521 Y27.563 E247.80758
G1 X65.389 Y27.941 F4800.000
G1 X69.404 Y31.955 E248.43870 F1200.000
G1 X68.550 Y30.610 F4800.000
G1 X66.552 Y28.612 E248.75289 F1200.000
G10 ; retract
G92 E0
G1 X53.583 Y39.716 F4800.000
G11 ; unretract
G92 E0
G1 X57.648 Y43.781 E0.63896 F1200.000
G1 X58.503 Y44.144 F4800.000
G1 X53.189 Y38.831 E1.47431 F1200.000
G1 X52.959 Y38.109 E1.55850
G1 X59.230 Y44.381 E2.54445
G1 X59.905 Y44.564 E2.62212
G1 X52.826 Y37.485 E3.73493
G1 X52.694 Y36.862 E3.80583
G1 X60.454 Y44.622 E5.02579
G1 X61.003 Y44.679 E5.08716
G1 X52.659 Y36.336 E6.39889
G1 X52.659 Y35.844 E6.45351
G1 X61.552 Y44.737 E7.85155
G1 X62.101 Y44.795 E7.91292
G1 X52.659 Y35.353 E9.39727
G1 X52.659 Y34.862 E9.45188
G1 X137.396 Y119.598 E22.77346
G1 X137.396 Y119.107 E22.82807
G1 X52.744 Y34.455 E36.13630
G1 X52.830 Y34.050 E36.18234
G1 X137.396 Y118.616 E49.47703
G1 X137.396 Y118.125 E49.53165
G1 X52.916 Y33.645 E62.81280
G1 X53.002 Y33.240 E62.85885
G1 X137.396 Y117.633 E76.12646
G1 X137.396 Y117.142 E76.18108
G1 X53.123 Y32.870 E89.42965
G1 X53.275 Y32.530 E89.47101
G1 X137.396 Y116.651 E102.69579
G1 X137.396 Y116.160 E102.75040
G1 X53.426 Y32.190 E115.95139
G1 X53.577 Y31.850 E115.99275
G1 X137.396 Y115.668 E129.16994
G1 X137.396 Y115.177 E129.22456
G1 X53.729 Y31.510 E142.37796
G1 X53.912 Y31.202 E142.41778
G1 X137.396 Y114.686 E155.54230
G1 X137.396 Y114.194 E155.59691
G1 X54.119 Y30.918 E168.68893
G1 X54.326 Y30.633 E168.72802
G1 X137.396 Y113.703 E181.78754
G1 X137.396 Y113.212 E181.84215
G1 X54.533 Y30.349 E194.86916
G1 X54.739 Y30.064 E194.90826
G1 X137.396 Y112.721 E207.90276
G1 X137.396 Y112.229 E207.95738
G1 X54.974 Y29.807 E220.91504
G1 X55.222 Y29.565 E220.95366
G1 X137.396 Y111.738 E233.87223
G1 X137.396 Y111.247 E233.92684
G1 X55.481 Y29.332 E246.80476
G1 X55.740 Y29.099 E246.84343
G1 X137.396 Y110.755 E259.68071
G1 X137.396 Y110.264 E259.73533
G1 X55.998 Y28.866 E272.53197
G1 X56.259 Y28.636 E272.57066
G1 X137.396 Y109.773 E285.32628
G1 X137.396 Y109.282 E285.38089
G1 X56.570 Y28.456 E298.08754
G1 X56.882 Y28.276 E298.12752
G1 X137.396 Y108.790 E310.78521
G1 X137.396 Y108.299 E310.83982
G1 X57.193 Y28.097 E323.44854
G1 X57.505 Y27.917 E323.48852
G1 X137.396 Y107.808 E336.04827
G1 X137.396 Y107.316 E336.10289
G1 X57.816 Y27.737 E348.61367
G1 X58.182 Y27.612 E348.65669
G1 X137.396 Y106.825 E361.10991
G1 X137.396 Y106.334 E361.16452
G1 X58.553 Y27.491 E373.55945
G1 X58.924 Y27.371 E373.60279
G1 X137.396 Y105.843 E385.93942
G1 X137.396 Y105.351 E385.99404
G1 X59.295 Y27.250 E398.27238
G1 X59.680 Y27.144 E398.31679
G1 X137.396 Y104.860 E410.53457
G1 X137.396 Y104.369 E410.58919
G1 X60.125 Y27.097 E422.73708
G1 X60.569 Y27.051 E422.78677
G1 X137.396 Y103.877 E434.86477
G1 X137.396 Y103.386 E434.91939
G1 X70.964 Y36.954 E445.36323
G1 X71.455 Y36.954 E445.41784
G1 X137.396 Y102.895 E455.78445
G1 X137.396 Y102.404 E455.83906
G1 X71.946 Y36.954 E466.12843
G1 X72.438 Y36.954 E466.18304
G1 X137.396 Y101.912 E476.39518
G1 X137.396 Y101.421 E476.44979
G1 X72.929 Y36.954 E486.58469
G1 X73.420 Y36.954 E486.63930
G1 X137.396 Y100.930 E496.69697
G1 X137.396 Y100.438 E496.75158
G1 X73.912 Y36.954 E506.73201
G1 X74.403 Y36.954 E506.78662
G1 X137.396 Y99.947 E516.68981
G1 X137.396 Y99.456 E516.74443
G1 X74.894 Y36.954 E526.57038
G1 X75.385 Y36.954 E526.62500
G1 X137.396 Y98.965 E536.37372
G1 X137.396 Y98.473 E536.42833
G1 X75.877 Y36.954 E546.09982
G1 X76.368 Y36.954 E546.15443
G1 X137.396 Y97.982 E555.74868
G1 X137.396 Y97.491 E555.80329
G1 X76.859 Y36.954 E565.32031
G1 X77.351 Y36.954 E565.37492
G1 X137.396 Y96.999 E574.81470
G1 X137.396 Y96.508 E574.86931
G1 X77.842 Y36.954 E584.23186
G1 X78.333 Y36.954 E584.28647
G1 X137.396 Y96.017 E593.57178
G1 X137.396 Y95.526 E593.62639
G1 X78.824 Y36.954 E602.83447
