; generated by Slic3r 1.2.9 on 2018-01-02 at 18:59:35

; external perimeters extrusion width = 0.50mm
; perimeters extrusion width = 0.50mm
; infill extrusion width = 0.50mm
; solid infill extrusion width = 0.50mm
; top infill extrusion width = 0.50mm

M107
M190 S70 ; set bed temperature
M117 Starting...
M200 D2.8500 ; set filament diameter and switch to volumetric extrusion mm in power of 3
M109 S160; set hot-end temperature to melt tip
G28 ; home all axes
M109 S190
M109 S220; set hot-end temperature to print
M208 S-0.05 F180 ; extrusion recover length and speed
M207 S0.5 F600 ; retraction

G21 ; set units to millimeters
G90 ; use absolute coordinates
M82 ; use absolute distances for extrusion
G92 E0
G10 ; retract
G92 E0
G1 Z0.320 F4800.000
G1 X47.261 Y27.287 F4800.000
G11 ; unretract
G92 E0
G1 X47.705 Y26.519 E0.09860 F1200.000
G1 X48.934 Y24.828 E0.33096
G1 X49.821 Y23.842 E0.47840
G1 X51.375 Y22.443 E0.71074
G1 X52.448 Y21.663 E0.85826
G1 X54.259 Y20.618 E1.09061
G1 X55.471 Y20.078 E1.23809
G1 X57.459 Y19.432 E1.47045
G1 X58.757 Y19.156 E1.61794
G1 X60.837 Y18.937 E1.85029
G1 X61.500 Y18.903 E1.92413
G1 X138.500 Y18.903 E10.48228
G1 X139.163 Y18.937 E10.55612
G1 X141.243 Y19.156 E10.78848 F1200.000
G1 X142.541 Y19.432 E10.93596
G1 X144.529 Y20.078 E11.16832
G1 X145.741 Y20.618 E11.31580
G1 X147.552 Y21.663 E11.54816
G1 X148.625 Y22.443 E11.69564
G1 X150.179 Y23.842 E11.92799
G1 X151.067 Y24.828 E12.07548
G1 X152.295 Y26.519 E12.30784
G1 X152.959 Y27.668 E12.45532
G1 X153.809 Y29.578 E12.68767
G1 X154.219 Y30.840 E12.83516
G1 X154.654 Y32.885 E13.06751
G1 X154.793 Y34.205 E13.21500
G1 X154.793 Y265.795 E38.95504
G1 X154.654 Y267.115 E39.10252
G1 X154.219 Y269.160 E39.33489
G1 X153.809 Y270.421 E39.48235
G1 X152.959 Y272.331 E39.71473
G1 X152.295 Y273.481 E39.86230
G1 X151.066 Y275.172 E40.09463
G1 X150.179 Y276.158 E40.24201
G1 X148.625 Y277.557 E40.47437
G1 X147.551 Y278.337 E40.62199
G1 X145.740 Y279.382 E40.85433
G1 X144.529 Y279.922 E41.00172
G1 X142.541 Y280.568 E41.23408
G1 X141.244 Y280.843 E41.38141
G1 X139.165 Y281.062 E41.61377
G1 X138.500 Y281.097 E41.68777
G1 X61.500 Y281.097 E50.24591
G1 X60.835 Y281.062 E50.31991
G1 X58.756 Y280.843 E50.55227
G1 X57.460 Y280.568 E50.69959
G1 X55.471 Y279.922 E50.93195
G1 X54.260 Y279.382 E51.07935
G1 X52.449 Y278.337 E51.31170
G1 X51.375 Y277.557 E51.45932
G1 X49.821 Y276.158 E51.69168
G1 X48.934 Y275.173 E51.83902
G1 X47.705 Y273.482 E52.07136
G1 X47.041 Y272.331 E52.21896
G1 X46.191 Y270.421 E52.45134
G1 X45.781 Y269.159 E52.59881
G1 X45.346 Y267.114 E52.83118
G1 X45.207 Y265.795 E52.97864
G1 X45.207 Y34.205 E78.71868
G1 X45.346 Y32.885 E78.86615
G1 X45.781 Y30.840 E79.09850
G1 X46.191 Y29.578 E79.24600
G1 X47.041 Y27.668 E79.47836
G1 X47.231 Y27.339 E79.52061
G10 ; retract
G92 E0
G1 X70.543 Y36.153 F4800.000
G11 ; unretract
G92 E0
G1 X129.457 Y36.153 E6.54808 F1200.000
G1 X129.457 Y34.300 E6.75404
G1 X129.853 Y32.440 E6.96531
G1 X130.626 Y30.704 E7.17657
G1 X131.743 Y29.166 E7.38784
G1 X133.156 Y27.894 E7.59911
G1 X134.802 Y26.944 E7.81037
G1 X136.610 Y26.356 E8.02164
G1 X138.500 Y26.158 E8.23291
G1 X140.390 Y26.356 E8.44417
G1 X142.198 Y26.944 E8.65544
G1 X143.844 Y27.894 E8.86670
G1 X145.257 Y29.166 E9.07797
G1 X146.374 Y30.704 E9.28924
G1 X147.147 Y32.440 E9.50050
G1 X147.543 Y34.300 E9.71177
G1 X147.543 Y36.200 E9.92304
G1 X147.147 Y38.060 E10.13430
G1 X146.789 Y38.864 E10.23219
G1 X146.374 Y39.796 E10.34557
G1 X145.257 Y41.334 E10.55684
G1 X143.844 Y42.606 E10.76811
G1 X142.198 Y43.556 E10.97937
G1 X140.390 Y44.144 E11.19064
G1 X137.597 Y44.437 E11.50278
G1 X137.597 Y255.563 E34.96825
G1 X140.390 Y255.857 E35.28040
G1 X142.198 Y256.444 E35.49168
G1 X143.844 Y257.394 E35.70293
G1 X145.257 Y258.666 E35.91420
G1 X146.374 Y260.204 E36.12544
G1 X147.147 Y261.940 E36.33672
G1 X147.543 Y263.800 E36.54800
G1 X147.543 Y265.700 E36.75921
G1 X147.147 Y267.560 E36.97049
G1 X146.374 Y269.296 E37.18177
G1 X145.257 Y270.834 E37.39301
G1 X143.844 Y272.106 E37.60428
G1 X142.198 Y273.056 E37.81553
G1 X140.390 Y273.643 E38.02681
G1 X138.500 Y273.842 E38.23807
G1 X136.610 Y273.643 E38.44933
G1 X134.802 Y273.056 E38.66062
G1 X133.156 Y272.106 E38.87187
G1 X131.743 Y270.834 E39.08314
G1 X130.626 Y269.296 E39.29438
G1 X129.853 Y267.560 E39.50566
G1 X129.457 Y265.700 E39.71694
G1 X129.457 Y263.847 E39.92287
G1 X70.543 Y263.847 E46.47095
G1 X70.543 Y265.700 E46.67688
G1 X70.147 Y267.560 E46.88816
G1 X69.374 Y269.296 E47.09944
G1 X68.257 Y270.834 E47.31069
G1 X66.844 Y272.106 E47.52196
G1 X65.198 Y273.056 E47.73320
G1 X63.390 Y273.643 E47.94449
G1 X61.500 Y273.842 E48.15575
G1 X59.610 Y273.643 E48.36701
G1 X57.802 Y273.056 E48.57830
G1 X56.156 Y272.106 E48.78955
G1 X54.743 Y270.834 E49.00082
G1 X53.626 Y269.296 E49.21206
G1 X52.853 Y267.560 E49.42334
G1 X52.457 Y265.700 E49.63462
G1 X52.457 Y263.800 E49.84582
G1 X52.853 Y261.940 E50.05710
G1 X53.626 Y260.204 E50.26838
G1 X54.743 Y258.666 E50.47962
G1 X56.156 Y257.394 E50.69089
G1 X57.802 Y256.444 E50.90214
G1 X59.610 Y255.857 E51.11343
G1 X62.403 Y255.563 E51.42557
G1 X62.403 Y44.437 E74.89105
G1 X59.610 Y44.144 E75.20319
G1 X57.802 Y43.556 E75.41446
G1 X56.156 Y42.606 E75.62573
G1 X54.743 Y41.334 E75.83699
G1 X53.626 Y39.796 E76.04826
G1 X52.853 Y38.060 E76.25952
G1 X52.457 Y36.200 E76.47079
G1 X52.457 Y34.300 E76.68206
G1 X52.853 Y32.440 E76.89333
G1 X53.626 Y30.704 E77.10459
G1 X54.743 Y29.166 E77.31586
G1 X56.156 Y27.894 E77.52712
G1 X57.802 Y26.944 E77.73839
G1 X59.610 Y26.356 E77.94966
G1 X61.500 Y26.158 E78.16093
G1 X63.390 Y26.356 E78.37219
G1 X65.198 Y26.944 E78.58346
G1 X66.844 Y27.894 E78.79473
G1 X68.257 Y29.166 E79.00599
G1 X69.374 Y30.704 E79.21726
G1 X70.147 Y32.440 E79.42853
G1 X70.543 Y34.300 E79.63979
G1 X70.543 Y36.093 E79.83908
G1 X70.890 Y35.805 F4800.000
G1 X129.110 Y35.805 E86.30996 F1200.000
G1 X129.110 Y34.263 E86.48137
G1 X129.520 Y32.332 E86.70075
G1 X130.323 Y30.529 E86.92013
G1 X131.484 Y28.932 E87.13951
G1 X132.950 Y27.612 E87.35889
G1 X134.660 Y26.625 E87.57827
G1 X136.537 Y26.015 E87.79766
G1 X138.500 Y25.808 E88.01704
G1 X140.463 Y26.015 E88.23642
G1 X142.340 Y26.625 E88.45580
G1 X144.050 Y27.612 E88.67518
G1 X145.516 Y28.932 E88.89456
G1 X146.677 Y30.529 E89.11394
G1 X147.479 Y32.332 E89.33333
G1 X147.890 Y34.263 E89.55271
G1 X147.890 Y36.237 E89.77209
G1 X147.479 Y38.168 E89.99147
G1 X147.106 Y39.006 E90.09341
G1 X146.677 Y39.971 E90.21085
G1 X145.516 Y41.568 E90.43023
G1 X144.050 Y42.888 E90.64961
G1 X142.340 Y43.875 E90.86899
G1 X140.463 Y44.485 E91.08838
G1 X137.945 Y44.750 E91.36982
G1 X137.945 Y255.250 E114.76578
G1 X140.463 Y255.515 E115.04723
G1 X142.340 Y256.125 E115.26662
G1 X144.050 Y257.112 E115.48598
G1 X145.516 Y258.433 E115.70537
G1 X146.677 Y260.029 E115.92473
G1 X147.480 Y261.833 E116.14412
G1 X147.890 Y263.763 E116.36352
G1 X147.890 Y265.737 E116.58283
G1 X147.479 Y267.667 E116.80223
G1 X146.677 Y269.471 E117.02163
G1 X145.516 Y271.067 E117.24098
G1 X144.050 Y272.388 E117.46037
G1 X142.340 Y273.375 E117.67973
G1 X140.463 Y273.985 E117.89913
G1 X138.500 Y274.192 E118.11851
G1 X136.537 Y273.985 E118.33788
G1 X134.660 Y273.375 E118.55728
G1 X132.950 Y272.388 E118.77664
G1 X131.483 Y271.067 E118.99603
G1 X130.323 Y269.471 E119.21539
G1 X129.520 Y267.667 E119.43478
G1 X129.110 Y265.737 E119.65418
G1 X129.110 Y264.195 E119.82556
G1 X70.890 Y264.195 E126.29644
G1 X70.890 Y265.737 E126.46782
G1 X70.480 Y267.667 E126.68721
G1 X69.677 Y269.471 E126.90660
G1 X68.516 Y271.067 E127.12597
G1 X67.050 Y272.388 E127.34535
G1 X65.340 Y273.375 E127.56472
G1 X63.463 Y273.985 E127.78411
G1 X61.500 Y274.192 E128.00349
G1 X59.537 Y273.985 E128.22287
G1 X57.660 Y273.375 E128.44226
G1 X55.950 Y272.388 E128.66163
G1 X54.484 Y271.067 E128.88101
G1 X53.323 Y269.471 E129.10038
G1 X52.520 Y267.667 E129.31977
G1 X52.110 Y265.737 E129.53916
G1 X52.110 Y263.763 E129.75848
G1 X52.520 Y261.833 E129.97788
G1 X53.323 Y260.029 E130.19727
G1 X54.484 Y258.433 E130.41663
G1 X55.950 Y257.112 E130.63601
G1 X57.660 Y256.125 E130.85538
G1 X59.537 Y255.515 E131.07477
G1 X62.055 Y255.250 E131.35622
G1 X62.055 Y44.750 E154.75218
G1 X59.537 Y44.485 E155.03362
G1 X57.660 Y43.875 E155.25301
G1 X55.950 Y42.888 E155.47239
G1 X54.484 Y41.568 E155.69176
G1 X53.323 Y39.971 E155.91115
G1 X52.520 Y38.168 E156.13053
G1 X52.110 Y36.237 E156.34991
G1 X52.110 Y34.263 E156.56929
G1 X52.520 Y32.332 E156.78868
G1 X53.323 Y30.529 E157.00805
G1 X54.484 Y28.932 E157.22744
G1 X55.950 Y27.612 E157.44682
G1 X57.660 Y26.625 E157.66620
G1 X59.537 Y26.015 E157.88559
G1 X61.500 Y25.808 E158.10497
G1 X63.463 Y26.015 E158.32435
G1 X65.340 Y26.625 E158.54373
G1 X67.050 Y27.612 E158.76311
G1 X68.516 Y28.932 E158.98249
G1 X69.677 Y30.529 E159.20188
G1 X70.480 Y32.332 E159.42125
G1 X70.890 Y34.263 E159.64064
G1 X70.890 Y35.745 E159.80538
G1 X71.237 Y35.458 F4800.000
G1 X128.763 Y35.458 E166.19905 F1200.000
G1 X128.763 Y34.227 E166.33591
G1 X129.188 Y32.224 E166.56341
G1 X130.021 Y30.355 E166.79090
G1 X131.224 Y28.699 E167.01840
G1 X132.745 Y27.329 E167.24590
G1 X134.518 Y26.306 E167.47339
G1 X136.464 Y25.673 E167.70089
G1 X138.500 Y25.459 E167.92839
G1 X140.536 Y25.673 E168.15588
G1 X142.482 Y26.306 E168.38338
G1 X144.255 Y27.329 E168.61087
G1 X145.776 Y28.699 E168.83837
G1 X146.979 Y30.355 E169.06587
G1 X147.812 Y32.224 E169.29336
G1 X148.237 Y34.227 E169.52086
G1 X148.237 Y36.273 E169.74835
G1 X147.812 Y38.276 E169.97585
G1 X147.424 Y39.147 E170.08185
G1 X146.979 Y40.145 E170.20335
G1 X145.776 Y41.801 E170.43084
G1 X144.255 Y43.171 E170.65834
G1 X142.482 Y44.194 E170.88583
G1 X140.536 Y44.827 E171.11333
G1 X138.292 Y45.063 E171.36407
G1 X138.292 Y254.937 E194.69053
G1 X140.536 Y255.174 E194.94127
G1 X142.482 Y255.806 E195.16877
G1 X144.255 Y256.829 E195.39625
G1 X145.776 Y258.199 E195.62376
G1 X146.979 Y259.855 E195.85123
G1 X147.812 Y261.725 E196.07874
G1 X148.237 Y263.727 E196.30625
G1 X148.237 Y265.773 E196.53368
G1 X147.812 Y267.775 E196.76119
G1 X146.979 Y269.645 E196.98870
G1 X145.776 Y271.301 E197.21617
G1 X144.255 Y272.671 E197.44368
G1 X142.482 Y273.694 E197.67115
G1 X140.536 Y274.326 E197.89866
G1 X138.500 Y274.541 E198.12616
G1 X136.464 Y274.326 E198.35365
G1 X134.518 Y273.694 E198.58115
G1 X132.745 Y272.671 E198.80863
G1 X131.224 Y271.301 E199.03614
G1 X130.021 Y269.645 E199.26361
G1 X129.188 Y267.775 E199.49112
G1 X128.763 Y265.773 E199.71863
G1 X128.763 Y264.542 E199.85546
G1 X71.237 Y264.542 E206.24913
G1 X71.237 Y265.773 E206.38597
G1 X70.812 Y267.775 E206.61348
G1 X69.979 Y269.645 E206.84099
G1 X68.776 Y271.301 E207.06846
G1 X67.255 Y272.671 E207.29596
G1 X65.482 Y273.694 E207.52344
G1 X63.536 Y274.326 E207.75095
G1 X61.500 Y274.541 E207.97844
G1 X59.464 Y274.326 E208.20594
G1 X57.518 Y273.694 E208.43345
G1 X55.745 Y272.671 E208.66093
G1 X54.224 Y271.301 E208.88843
G1 X53.021 Y269.645 E209.11590
G1 X52.188 Y267.775 E209.34341
G1 X51.763 Y265.773 E209.57092
G1 X51.763 Y263.727 E209.79835
G1 X52.188 Y261.725 E210.02586
G1 X53.021 Y259.855 E210.25337
G1 X54.224 Y258.199 E210.48085
G1 X55.745 Y256.829 E210.70835
G1 X57.518 Y255.806 E210.93583
G1 X59.464 Y255.174 E211.16333
G1 X61.708 Y254.937 E211.41407
G1 X61.708 Y45.063 E234.74053
G1 X59.464 Y44.827 E234.99127
G1 X57.518 Y44.194 E235.21877
G1 X55.745 Y43.171 E235.44627
G1 X54.224 Y41.801 E235.67376
G1 X53.021 Y40.145 E235.90126
G1 X52.188 Y38.276 E236.12875
G1 X51.763 Y36.273 E236.35625
G1 X51.763 Y34.227 E236.58375
G1 X52.188 Y32.224 E236.81124
G1 X53.021 Y30.355 E237.03874
G1 X54.224 Y28.699 E237.26624
G1 X55.745 Y27.329 E237.49373
G1 X57.518 Y26.306 E237.72122
G1 X59.464 Y25.673 E237.94873
G1 X61.500 Y25.459 E238.17622
G1 X63.536 Y25.673 E238.40372
G1 X65.482 Y26.306 E238.63122
G1 X67.255 Y27.329 E238.85871
G1 X68.776 Y28.699 E239.08620
G1 X69.979 Y30.355 E239.31371
G1 X70.812 Y32.224 E239.54120
G1 X71.237 Y34.227 E239.76869
G1 X71.237 Y35.398 E239.89889
G1 X71.237 Y35.858 F4800.000
G10 ; retract
G92 E0
G1 X69.839 Y32.333 F4800.000
G11 ; unretract
G92 E0
G1 X64.445 Y26.938 E0.84867 F1200.000
G1 X63.716 Y26.702 E0.93384
G1 X70.051 Y33.036 E1.93032
G1 X70.183 Y33.660 E2.00132
G1 X63.055 Y26.532 E3.12275
G1 X62.505 Y26.474 E3.18420
G1 X70.316 Y34.285 E4.41293
G1 X70.341 Y34.801 E4.47046
G1 X61.956 Y26.416 E5.78953
G1 X61.410 Y26.362 E5.85052
G1 X70.341 Y35.293 E7.25543
G1 X70.341 Y35.785 E7.31012
G1 X60.966 Y26.409 E8.78501
G1 X60.521 Y26.456 E8.83476
G1 X137.396 Y103.331 E20.92832
G1 X137.396 Y102.839 E20.98301
G1 X70.911 Y36.354 E31.44208
G1 X71.402 Y36.354 E31.49676
G1 X137.396 Y102.348 E41.87850
G1 X137.396 Y101.856 E41.93318
G1 X71.894 Y36.354 E52.23758
G1 X72.385 Y36.354 E52.29227
G1 X137.396 Y101.365 E62.51933
G1 X137.396 Y100.873 E62.57402
G1 X72.877 Y36.354 E72.72374
G1 X73.369 Y36.354 E72.77843
G1 X137.396 Y100.381 E82.85081
G1 X137.396 Y99.890 E82.90550
G1 X73.860 Y36.354 E92.90055
G1 X74.352 Y36.354 E92.95523
G1 X137.396 Y99.398 E102.87295
G1 X137.396 Y98.906 E102.92763
G1 X74.844 Y36.354 E112.76801
G1 X75.335 Y36.354 E112.82269
G1 X137.396 Y98.415 E122.58573
G1 X137.396 Y97.923 E122.64042
G1 X75.827 Y36.354 E132.32612
G1 X76.318 Y36.354 E132.38081
G1 X137.396 Y97.432 E141.98917
G1 X137.396 Y96.940 E142.04386
G1 X76.810 Y36.354 E151.57489
G1 X77.302 Y36.354 E151.62957
G1 X137.396 Y96.448 E161.08326
G1 X137.396 Y95.957 E161.13795
G1 X77.793 Y36.354 E170.51430
G1 X78.285 Y36.354 E170.56899
G1 X137.396 Y95.465 E179.86801
G1 X137.396 Y94.974 E179.92269
G1 X78.776 Y36.354 E189.14437
G1 X79.268 Y36.354 E189.19906
G1 X137.396 Y94.482 E198.34340
G1 X137.396 Y93.990 E198.39809
G1 X79.760 Y36.354 E207.46510
G1 X80.251 Y36.354 E207.51978
G1 X137.396 Y93.499 E216.50945
G1 X137.396 Y93.007 E216.56414
G1 X80.743 Y36.354 E225.47647
G1 X81.234 Y36.354 E225.53116
G1 X137.396 Y92.516 E234.36615
G1 X137.396 Y92.024 E234.42084
G1 X81.726 Y36.354 E243.17850
G1 X82.218 Y36.354 E243.23318
G1 X137.396 Y91.532 E251.91350
G1 X137.396 Y91.041 E251.96819
G1 X82.709 Y36.354 E260.57118
G1 X83.201 Y36.354 E260.62586
G1 X137.396 Y90.549 E269.15151
G1 X137.396 Y90.058 E269.20619
G1 X83.692 Y36.354 E277.65451
G1 X84.184 Y36.354 E277.70919
G1 X137.396 Y89.566 E286.08017
G1 X137.396 Y89.074 E286.13485
G1 X84.676 Y36.354 E294.42849
G1 X85.167 Y36.354 E294.48317
G1 X137.396 Y88.583 E302.69948
G1 X137.396 Y88.091 E302.75416
G1 X85.659 Y36.354 E310.89312
G1 X86.150 Y36.354 E310.94781
G1 X137.396 Y87.599 E319.00944
G1 X137.396 Y87.108 E319.06412
G1 X86.642 Y36.354 E327.04841
G1 X87.134 Y36.354 E327.10310
G1 X137.396 Y86.616 E335.01005
G1 X137.396 Y86.125 E335.06474
G1 X87.625 Y36.354 E342.89435
G1 X88.117 Y36.354 E342.94904
G1 X137.396 Y85.633 E350.70132
G1 X137.396 Y85.141 E350.75600
G1 X88.609 Y36.354 E358.43094
G1 X89.100 Y36.354 E358.48563
G1 X137.396 Y84.650 E366.08323
G1 X137.396 Y84.158 E366.13792
G1 X89.592 Y36.354 E373.65819
G1 X90.083 Y36.354 E373.71287
G1 X137.396 Y83.667 E381.15581
G1 X137.396 Y83.175 E381.21049
G1 X90.575 Y36.354 E388.57608
G1 X91.067 Y36.354 E388.63077
G1 X137.396 Y82.683 E395.91903
G1 X137.396 Y82.192 E395.97371
G1 X91.558 Y36.354 E403.18463
G1 X92.050 Y36.354 E403.23932
G1 X137.396 Y81.700 E410.37290
G1 X137.396 Y81.209 E410.42759
G1 X92.541 Y36.354 E417.48383
G1 X93.033 Y36.354 E417.53852
G1 X137.396 Y80.717 E424.51743
G1 X137.396 Y80.225 E424.57211
G1 X93.525 Y36.354 E431.47369
G1 X94.016 Y36.354 E431.52837
G1 X137.396 Y79.734 E438.35261
G1 X137.396 Y79.242 E438.40729
G1 X94.508 Y36.354 E445.15419
G1 X94.999 Y36.354 E445.20888
G1 X137.396 Y78.751 E451.87844
G1 X137.396 Y78.259 E451.93312
G1 X95.491 Y36.354 E458.52535
G1 X95.983 Y36.354 E458.58003
G1 X137.396 Y77.767 E465.09492
G1 X137.396 Y77.276 E465.14961
G1 X96.474 Y36.354 E471.58716
G1 X96.966 Y36.354 E471.64184
G1 X137.396 Y76.784 E478.00206
G1 X137.396 Y76.293 E478.05674
G1 X97.457 Y36.354 E484.33962
G1 X97.949 Y36.354 E484.39430
G1 X137.396 Y75.801 E490.59984
G1 X137.396 Y75.309 E490.65453
G1 X98.441 Y36.354 E496.78273
G1 X98.932 Y36.354 E496.83742
G1 X137.396 Y74.818 E502.88828
G1 X137.396 Y74.326 E502.94297
G1 X99.424 Y36.354 E508.91650
G1 X99.915 Y36.354 E508.97118
G1 X137.396 Y73.834 E514.86737
