; generated by Slic3r 1.2.9 on 2018-01-02 at 18:58:33

; external perimeters extrusion width = 0.50mm
; perimeters extrusion width = 0.50mm
; infill extrusion width = 0.50mm
; solid infill extrusion width = 0.50mm
; top infill extrusion width = 0.50mm

M107
M190 S70 ; set bed temperature
M117 Starting...
M200 D2.8500 ; set filament diameter and switch to volumetric extrusion mm in power of 3
M109 S160; set hot-end temperature to melt tip
G28 ; home all axes
M109 S190
M109 S220; set hot-end temperature to print
M208 S-0.05 F180 ; extrusion recover length and speed
M207 S0.5 F600 ; retraction

G21 ; set units to millimeters
G90 ; use absolute coordinates
M82 ; use absolute distances for extrusion
G92 E0
G10 ; retract
G92 E0
G1 Z0.320 F4800.000
G1 X47.175 Y27.237 F4800.000
G11 ; unretract
G92 E0
G1 X47.705 Y26.319 E0.11785 F1200.000
G1 X48.934 Y24.628 E0.35021
G1 X49.821 Y23.642 E0.49765
G1 X51.375 Y22.243 E0.72999
G1 X52.448 Y21.463 E0.87751
G1 X54.259 Y20.418 E1.10986
G1 X55.471 Y19.878 E1.25734
G1 X57.459 Y19.232 E1.48970
G1 X58.757 Y18.956 E1.63719
G1 X60.837 Y18.737 E1.86954
G1 X61.500 Y18.703 E1.94338
G1 X138.500 Y18.703 E10.50153
G1 X139.163 Y18.737 E10.57537
G1 X141.243 Y18.956 E10.80773 F1200.000
G1 X142.541 Y19.232 E10.95521
G1 X144.529 Y19.878 E11.18757
G1 X145.741 Y20.418 E11.33505
G1 X147.552 Y21.463 E11.56741
G1 X148.625 Y22.243 E11.71489
G1 X150.179 Y23.642 E11.94724
G1 X151.067 Y24.628 E12.09473
G1 X152.295 Y26.319 E12.32709
G1 X152.959 Y27.468 E12.47457
G1 X153.809 Y29.378 E12.70693
G1 X154.219 Y30.640 E12.85441
G1 X154.654 Y32.685 E13.08677
G1 X154.793 Y34.005 E13.23425
G1 X154.793 Y265.995 E39.01876
G1 X154.654 Y267.315 E39.16623
G1 X154.219 Y269.360 E39.39860
G1 X153.809 Y270.621 E39.54607
G1 X152.959 Y272.532 E39.77844
G1 X152.295 Y273.681 E39.92601
G1 X151.066 Y275.372 E40.15834
G1 X150.179 Y276.358 E40.30573
G1 X148.625 Y277.757 E40.53809
G1 X147.551 Y278.537 E40.68569
G1 X145.740 Y279.582 E40.91803
G1 X144.529 Y280.122 E41.06544
G1 X142.540 Y280.768 E41.29780
G1 X141.244 Y281.043 E41.44511
G1 X139.165 Y281.262 E41.67747
G1 X138.500 Y281.297 E41.75148
G1 X61.500 Y281.297 E50.30962
G1 X60.835 Y281.262 E50.38363
G1 X58.756 Y281.043 E50.61599
G1 X57.460 Y280.768 E50.76329
G1 X55.471 Y280.122 E50.99565
G1 X54.260 Y279.582 E51.14306
G1 X52.449 Y278.537 E51.37541
G1 X51.375 Y277.757 E51.52303
G1 X49.821 Y276.358 E51.75539
G1 X48.934 Y275.372 E51.90274
G1 X47.705 Y273.681 E52.13507
G1 X47.041 Y272.532 E52.28266
G1 X46.191 Y270.622 E52.51503
G1 X45.781 Y269.359 E52.66252
G1 X45.346 Y267.314 E52.89489
G1 X45.207 Y265.995 E53.04234
G1 X45.207 Y34.005 E78.82685
G1 X45.346 Y32.685 E78.97431
G1 X45.781 Y30.640 E79.20667
G1 X46.191 Y29.378 E79.35417
G1 X47.041 Y27.468 E79.58652
G1 X47.145 Y27.289 E79.60952
G10 ; retract
G92 E0
G1 X70.543 Y35.953 F4800.000
G11 ; unretract
G92 E0
G1 X129.457 Y35.953 E6.54808 F1200.000
G1 X129.457 Y34.100 E6.75404
G1 X129.853 Y32.240 E6.96531
G1 X130.626 Y30.504 E7.17657
G1 X131.743 Y28.966 E7.38784
G1 X133.156 Y27.694 E7.59911
G1 X134.802 Y26.744 E7.81037
G1 X136.610 Y26.156 E8.02164
G1 X138.500 Y25.958 E8.23291
G1 X140.390 Y26.156 E8.44417
G1 X142.198 Y26.744 E8.65544
G1 X143.844 Y27.694 E8.86670
G1 X145.257 Y28.966 E9.07797
G1 X146.374 Y30.504 E9.28924
G1 X147.147 Y32.240 E9.50050
G1 X147.543 Y34.100 E9.71177
G1 X147.543 Y36.000 E9.92304
G1 X147.147 Y37.860 E10.13430
G1 X146.789 Y38.664 E10.23219
G1 X146.374 Y39.596 E10.34557
G1 X145.257 Y41.134 E10.55684
G1 X143.844 Y42.406 E10.76811
G1 X142.198 Y43.356 E10.97937
G1 X140.390 Y43.944 E11.19064
G1 X137.597 Y44.237 E11.50278
G1 X137.597 Y255.763 E35.01271
G1 X140.390 Y256.057 E35.32485
G1 X142.198 Y256.644 E35.53614
G1 X143.844 Y257.594 E35.74738
G1 X145.257 Y258.866 E35.95866
G1 X146.374 Y260.404 E36.16990
G1 X147.147 Y262.140 E36.38118
G1 X147.543 Y264.000 E36.59246
G1 X147.543 Y265.900 E36.80366
G1 X147.147 Y267.760 E37.01494
G1 X146.374 Y269.496 E37.22622
G1 X145.257 Y271.034 E37.43746
G1 X143.844 Y272.306 E37.64874
G1 X142.198 Y273.256 E37.85999
G1 X140.390 Y273.843 E38.07127
G1 X138.500 Y274.042 E38.28253
G1 X136.610 Y273.843 E38.49379
G1 X134.802 Y273.256 E38.70507
G1 X133.156 Y272.306 E38.91632
G1 X131.743 Y271.034 E39.12759
G1 X130.626 Y269.496 E39.33883
G1 X129.853 Y267.760 E39.55011
G1 X129.457 Y265.900 E39.76139
G1 X129.457 Y264.047 E39.96732
G1 X70.543 Y264.047 E46.51540
G1 X70.543 Y265.900 E46.72133
G1 X70.147 Y267.760 E46.93261
G1 X69.374 Y269.496 E47.14388
G1 X68.257 Y271.034 E47.35513
G1 X66.844 Y272.306 E47.56640
G1 X65.198 Y273.256 E47.77765
G1 X63.390 Y273.843 E47.98893
G1 X61.500 Y274.042 E48.20020
G1 X59.610 Y273.843 E48.41145
G1 X57.802 Y273.256 E48.62274
G1 X56.156 Y272.306 E48.83399
G1 X54.743 Y271.034 E49.04526
G1 X53.626 Y269.496 E49.25650
G1 X52.853 Y267.760 E49.46778
G1 X52.457 Y265.900 E49.67906
G1 X52.457 Y264.000 E49.89027
G1 X52.853 Y262.140 E50.10155
G1 X53.626 Y260.404 E50.31282
G1 X54.743 Y258.866 E50.52407
G1 X56.156 Y257.594 E50.73534
G1 X57.802 Y256.644 E50.94659
G1 X59.610 Y256.057 E51.15788
G1 X62.403 Y255.763 E51.47001
G1 X62.403 Y44.237 E74.97995
G1 X59.610 Y43.944 E75.29209
G1 X57.802 Y43.356 E75.50336
G1 X56.156 Y42.406 E75.71463
G1 X54.743 Y41.134 E75.92589
G1 X53.626 Y39.596 E76.13716
G1 X52.853 Y37.860 E76.34843
G1 X52.457 Y36.000 E76.55969
G1 X52.457 Y34.100 E76.77096
G1 X52.853 Y32.240 E76.98223
G1 X53.626 Y30.504 E77.19349
G1 X54.743 Y28.966 E77.40477
G1 X56.156 Y27.694 E77.61602
G1 X57.802 Y26.744 E77.82729
G1 X59.610 Y26.156 E78.03856
G1 X61.500 Y25.958 E78.24983
G1 X63.390 Y26.156 E78.46109
G1 X65.198 Y26.744 E78.67236
G1 X66.844 Y27.694 E78.88363
G1 X68.257 Y28.966 E79.09489
G1 X69.374 Y30.504 E79.30617
G1 X70.147 Y32.240 E79.51743
G1 X70.543 Y34.100 E79.72869
G1 X70.543 Y35.893 E79.92798
G1 X70.890 Y35.605 F4800.000
G1 X129.110 Y35.605 E86.39886 F1200.000
G1 X129.110 Y34.063 E86.57027
G1 X129.520 Y32.132 E86.78965
G1 X130.323 Y30.329 E87.00903
G1 X131.484 Y28.732 E87.22841
G1 X132.950 Y27.412 E87.44780
G1 X134.660 Y26.425 E87.66718
G1 X136.537 Y25.815 E87.88656
G1 X138.500 Y25.608 E88.10594
G1 X140.463 Y25.815 E88.32532
G1 X142.340 Y26.425 E88.54470
G1 X144.050 Y27.412 E88.76408
G1 X145.516 Y28.732 E88.98347
G1 X146.677 Y30.329 E89.20285
G1 X147.479 Y32.132 E89.42223
G1 X147.890 Y34.063 E89.64161
G1 X147.890 Y36.037 E89.86099
G1 X147.479 Y37.968 E90.08037
G1 X147.106 Y38.806 E90.18232
G1 X146.677 Y39.771 E90.29975
G1 X145.516 Y41.368 E90.51914
G1 X144.050 Y42.688 E90.73852
G1 X142.340 Y43.675 E90.95790
G1 X140.463 Y44.285 E91.17728
G1 X137.945 Y44.550 E91.45872
G1 X137.945 Y255.450 E114.89914
G1 X140.463 Y255.715 E115.18059
G1 X142.340 Y256.325 E115.39998
G1 X144.050 Y257.312 E115.61934
G1 X145.516 Y258.633 E115.83873
G1 X146.677 Y260.229 E116.05809
G1 X147.479 Y262.033 E116.27748
G1 X147.890 Y263.963 E116.49687
G1 X147.890 Y265.937 E116.71620
G1 X147.479 Y267.867 E116.93559
G1 X146.677 Y269.671 E117.15499
G1 X145.516 Y271.267 E117.37434
G1 X144.050 Y272.588 E117.59373
G1 X142.340 Y273.575 E117.81309
G1 X140.463 Y274.185 E118.03248
G1 X138.500 Y274.392 E118.25187
G1 X136.537 Y274.185 E118.47125
G1 X134.660 Y273.575 E118.69063
G1 X132.950 Y272.588 E118.91000
G1 X131.484 Y271.267 E119.12939
G1 X130.323 Y269.671 E119.34874
G1 X129.520 Y267.867 E119.56814
G1 X129.110 Y265.937 E119.78753
G1 X129.110 Y264.395 E119.95892
G1 X70.890 Y264.395 E126.42979
G1 X70.890 Y265.937 E126.60117
G1 X70.480 Y267.867 E126.82056
G1 X69.677 Y269.671 E127.03996
G1 X68.516 Y271.267 E127.25932
G1 X67.050 Y272.588 E127.47870
G1 X65.340 Y273.575 E127.69807
G1 X63.463 Y274.185 E127.91746
G1 X61.500 Y274.392 E128.13684
G1 X59.537 Y274.185 E128.35622
G1 X57.660 Y273.575 E128.57561
G1 X55.950 Y272.588 E128.79498
G1 X54.484 Y271.267 E129.01436
G1 X53.323 Y269.671 E129.23372
G1 X52.520 Y267.867 E129.45312
G1 X52.110 Y265.937 E129.67251
G1 X52.110 Y263.963 E129.89183
G1 X52.520 Y262.033 E130.11122
G1 X53.323 Y260.229 E130.33062
G1 X54.484 Y258.633 E130.54998
G1 X55.950 Y257.312 E130.76936
G1 X57.660 Y256.325 E130.98873
G1 X59.537 Y255.715 E131.20812
G1 X62.055 Y255.450 E131.48956
G1 X62.055 Y44.550 E154.92999
G1 X59.537 Y44.285 E155.21143
G1 X57.660 Y43.675 E155.43082
G1 X55.950 Y42.688 E155.65020
G1 X54.484 Y41.368 E155.86957
G1 X53.323 Y39.771 E156.08896
G1 X52.520 Y37.968 E156.30834
G1 X52.110 Y36.037 E156.52772
G1 X52.110 Y34.063 E156.74710
G1 X52.520 Y32.132 E156.96648
G1 X53.323 Y30.329 E157.18586
G1 X54.484 Y28.732 E157.40525
G1 X55.950 Y27.412 E157.62463
G1 X57.660 Y26.425 E157.84401
G1 X59.537 Y25.815 E158.06339
G1 X61.500 Y25.608 E158.28277
G1 X63.463 Y25.815 E158.50215
G1 X65.340 Y26.425 E158.72154
G1 X67.050 Y27.412 E158.94092
G1 X68.516 Y28.732 E159.16030
G1 X69.677 Y30.329 E159.37968
G1 X70.480 Y32.132 E159.59906
G1 X70.890 Y34.063 E159.81844
G1 X70.890 Y35.545 E159.98319
G1 X71.237 Y35.258 F4800.000
G1 X128.763 Y35.258 E166.37685 F1200.000
G1 X128.763 Y34.027 E166.51372
G1 X129.188 Y32.024 E166.74122
G1 X130.021 Y30.155 E166.96871
G1 X131.224 Y28.499 E167.19621
G1 X132.745 Y27.129 E167.42370
G1 X134.518 Y26.106 E167.65120
G1 X136.464 Y25.473 E167.87870
G1 X138.500 Y25.259 E168.10619
G1 X140.536 Y25.473 E168.33369
G1 X142.482 Y26.106 E168.56119
G1 X144.255 Y27.129 E168.78868
G1 X145.776 Y28.499 E169.01618
G1 X146.979 Y30.155 E169.24367
G1 X147.812 Y32.024 E169.47117
G1 X148.237 Y34.027 E169.69867
G1 X148.237 Y36.073 E169.92616
G1 X147.812 Y38.076 E170.15366
G1 X147.424 Y38.947 E170.25966
G1 X146.979 Y39.945 E170.38115
G1 X145.776 Y41.601 E170.60865
G1 X144.255 Y42.971 E170.83615
G1 X142.482 Y43.994 E171.06364
G1 X140.536 Y44.627 E171.29114
G1 X138.292 Y44.863 E171.54188
G1 X138.292 Y255.137 E194.91279
G1 X140.536 Y255.374 E195.16354
G1 X142.482 Y256.006 E195.39104
G1 X144.255 Y257.029 E195.61851
G1 X145.776 Y258.399 E195.84602
G1 X146.979 Y260.055 E196.07349
G1 X147.812 Y261.925 E196.30100
G1 X148.237 Y263.927 E196.52851
G1 X148.237 Y265.973 E196.75595
G1 X147.812 Y267.975 E196.98345
G1 X146.979 Y269.845 E197.21097
G1 X145.776 Y271.501 E197.43844
G1 X144.255 Y272.871 E197.66594
G1 X142.482 Y273.894 E197.89342
G1 X140.536 Y274.526 E198.12092
G1 X138.500 Y274.741 E198.34842
G1 X136.464 Y274.526 E198.57592
G1 X134.518 Y273.894 E198.80342
G1 X132.745 Y272.871 E199.03090
G1 X131.224 Y271.501 E199.25840
G1 X130.021 Y269.845 E199.48587
G1 X129.188 Y267.975 E199.71338
G1 X128.763 Y265.973 E199.94089
G1 X128.763 Y264.742 E200.07773
G1 X71.237 Y264.742 E206.47139
G1 X71.237 Y265.973 E206.60823
G1 X70.812 Y267.975 E206.83574
G1 X69.979 Y269.845 E207.06325
G1 X68.776 Y271.501 E207.29072
G1 X67.255 Y272.871 E207.51822
G1 X65.482 Y273.894 E207.74570
G1 X63.536 Y274.526 E207.97320
G1 X61.500 Y274.741 E208.20070
G1 X59.464 Y274.526 E208.42820
G1 X57.518 Y273.894 E208.65570
G1 X55.745 Y272.871 E208.88319
G1 X54.224 Y271.501 E209.11068
G1 X53.021 Y269.845 E209.33816
G1 X52.188 Y267.975 E209.56567
G1 X51.763 Y265.973 E209.79318
G1 X51.763 Y263.927 E210.02061
G1 X52.188 Y261.925 E210.24812
G1 X53.021 Y260.055 E210.47563
G1 X54.224 Y258.399 E210.70310
G1 X55.745 Y257.029 E210.93060
G1 X57.518 Y256.006 E211.15809
G1 X59.464 Y255.374 E211.38559
G1 X61.708 Y255.137 E211.63633
G1 X61.708 Y44.863 E235.00724
G1 X59.464 Y44.627 E235.25798
G1 X57.518 Y43.994 E235.48549
G1 X55.745 Y42.971 E235.71298
G1 X54.224 Y41.601 E235.94047
G1 X53.021 Y39.945 E236.16797
G1 X52.188 Y38.076 E236.39547
G1 X51.763 Y36.073 E236.62297
G1 X51.763 Y34.027 E236.85046
G1 X52.188 Y32.024 E237.07796
G1 X53.021 Y30.155 E237.30545
G1 X54.224 Y28.499 E237.53296
G1 X55.745 Y27.129 E237.76044
G1 X57.518 Y26.106 E237.98794
G1 X59.464 Y25.473 E238.21544
G1 X61.500 Y25.259 E238.44294
G1 X63.536 Y25.473 E238.67043
G1 X65.482 Y26.106 E238.89793
G1 X67.255 Y27.129 E239.12543
G1 X68.776 Y28.499 E239.35292
G1 X69.979 Y30.155 E239.58042
G1 X70.812 Y32.024 E239.80792
G1 X71.237 Y34.027 E240.03541
G1 X71.237 Y35.198 E240.16561
G1 X71.237 Y35.658 F4800.000
G1 X70.341 Y35.562 F4800.000
G1 X60.986 Y26.207 E241.63690 F1200.000
G1 X61.432 Y26.161 E241.68673
G1 X70.341 Y35.071 E243.08793
G1 X70.341 Y34.579 E243.14259
G1 X61.981 Y26.219 E244.45741
G1 X62.530 Y26.277 E244.51882
G1 X70.310 Y34.057 E245.74241
G1 X70.177 Y33.433 E245.81337
G1 X63.079 Y26.334 E246.92973
G1 X63.749 Y26.512 E247.00676
G1 X70.045 Y32.809 E247.99698
G1 X69.822 Y32.094 E248.08019
G1 X64.477 Y26.749 E248.92088
G1 X65.320 Y27.100 F4800.000
G1 X69.428 Y31.208 E249.56695 F1200.000
G1 X68.628 Y29.918 F4800.000
G1 X66.482 Y27.772 E249.90445 F1200.000
G10 ; retract
G92 E0
G1 X52.969 Y37.358 F4800.000
G11 ; unretract
G92 E0
G1 X59.174 Y43.563 E0.97582 F1200.000
G1 X59.862 Y43.759 E1.05545
G1 X52.837 Y36.734 E2.16040
G1 X52.704 Y36.110 E2.23136
G1 X60.412 Y43.817 E3.44355
G1 X60.961 Y43.875 E3.50496
G1 X52.659 Y35.573 E4.81059
G1 X52.659 Y35.082 E4.86525
G1 X61.510 Y43.933 E6.25725
G1 X62.059 Y43.990 E6.31866
G1 X52.659 Y34.590 E7.79704
G1 X52.659 Y34.099 E7.85170
G1 X137.396 Y118.836 E21.17834
G1 X137.396 Y118.344 E21.23300
G1 X52.737 Y33.686 E34.54731
G1 X52.824 Y33.280 E34.59339
G1 X137.396 Y117.853 E47.89415
G1 X137.396 Y117.361 E47.94880
G1 X52.910 Y32.875 E61.23601
G1 X52.996 Y32.470 E61.28210
G1 X137.396 Y116.870 E74.55576
G1 X137.396 Y116.378 E74.61041
G1 X53.112 Y32.095 E87.86578
G1 X53.264 Y31.755 E87.90717
G1 X137.396 Y115.887 E101.13872
G1 X137.396 Y115.395 E101.19338
G1 X53.415 Y31.414 E114.40111
G1 X53.566 Y31.074 E114.44251
G1 X137.396 Y114.904 E127.62644
G1 X137.396 Y114.412 E127.68109
G1 X53.718 Y30.734 E140.84121
G1 X53.898 Y30.423 E140.88122
G1 X137.396 Y113.921 E154.01306
G1 X137.396 Y113.429 E154.06771
G1 X54.104 Y30.138 E167.16702
G1 X54.311 Y29.853 E167.20615
G1 X137.396 Y112.938 E180.27293
G1 X137.396 Y112.446 E180.32759
G1 X54.518 Y29.569 E193.36184
G1 X54.725 Y29.284 E193.40097
G1 X137.396 Y111.955 E206.40270
G1 X137.396 Y111.463 E206.45735
G1 X54.957 Y29.024 E219.42264
G1 X55.205 Y28.781 E219.46129
G1 X137.396 Y110.972 E232.38758
G1 X137.396 Y110.480 E232.44224
G1 X55.463 Y28.548 E245.32786
G1 X55.722 Y28.315 E245.36656
G1 X137.396 Y109.989 E258.21151
G1 X137.396 Y109.498 E258.26617
G1 X55.980 Y28.082 E271.07045
G1 X56.239 Y27.849 E271.10915
G1 X137.396 Y109.006 E283.87276
G1 X137.396 Y108.515 E283.92741
G1 X56.549 Y27.668 E296.64220
G1 X56.861 Y27.488 E296.68221
G1 X137.396 Y108.023 E309.34799
G1 X137.396 Y107.532 E309.40264
G1 X57.173 Y27.308 E322.01942
G1 X57.484 Y27.129 E322.05943
G1 X137.396 Y107.040 E334.62721
G1 X137.396 Y106.549 E334.68186
G1 X57.796 Y26.949 E347.20063
G1 X58.158 Y26.820 E347.24342
G1 X137.396 Y106.057 E359.70519
G1 X137.396 Y105.566 E359.75985
G1 X58.529 Y26.699 E372.16329
G1 X58.900 Y26.579 E372.20666
G1 X137.396 Y105.074 E384.55176
G1 X137.396 Y104.583 E384.60641
G1 X59.271 Y26.458 E396.89317
G1 X59.652 Y26.347 E396.93726
G1 X137.396 Y104.091 E409.16416
G1 X137.396 Y103.600 E409.21882
G1 X60.096 Y26.300 E421.37578
G1 X60.541 Y26.254 E421.42550
G1 X137.396 Y103.108 E433.51252
G1 X137.396 Y102.617 E433.56718
G1 X70.933 Y36.154 E444.01984
G1 X71.425 Y36.154 E444.07450
G1 X137.396 Y102.125 E454.44987
G1 X137.396 Y101.634 E454.50452
G1 X71.916 Y36.154 E464.80260
G1 X72.407 Y36.154 E464.85725
G1 X137.396 Y101.143 E475.07804
G1 X137.396 Y100.651 E475.13269
G1 X72.899 Y36.154 E485.27618
G1 X73.390 Y36.154 E485.33083
G1 X137.396 Y100.160 E495.39703
G1 X137.396 Y99.668 E495.45168
G1 X73.882 Y36.154 E505.44058
G1 X74.373 Y36.154 E505.49524
G1 X137.396 Y99.177 E515.40684
G1 X137.396 Y98.685 E515.46150
G1 X74.865 Y36.154 E525.29581
G1 X75.356 Y36.154 E525.35047
G1 X137.396 Y98.194 E535.10748
G1 X137.396 Y97.702 E535.16214
G1 X75.848 Y36.154 E544.84186
G1 X76.339 Y36.154 E544.89651
G1 X137.396 Y97.211 E554.49894
G1 X137.396 Y96.719 E554.55360
G1 X76.831 Y36.154 E564.07873
G1 X77.322 Y36.154 E564.13339
G1 X137.396 Y96.228 E573.58123
G1 X137.396 Y95.736 E573.63588
G1 X77.814 Y36.154 E583.00643
G1 X78.305 Y36.154 E583.06108
G1 X137.396 Y95.245 E592.35433
G1 X137.396 Y94.753 E592.40899
G1 X78.797 Y36.154 E601.62494
G1 X79.288 Y36.154 E601.67960
G1 X137.396 Y94.262 E610.81826
G1 X137.396 Y93.770 E610.87292
G1 X79.780 Y36.154 E619.93429
