; generated by Slic3r 1.2.9 on 2018-01-02 at 18:58:43

; external perimeters extrusion width = 0.50mm
; perimeters extrusion width = 0.50mm
; infill extrusion width = 0.50mm
; solid infill extrusion width = 0.50mm
; top infill extrusion width = 0.50mm

M107
M190 S70 ; set bed temperature
M117 Starting...
M200 D2.8500 ; set filament diameter and switch to volumetric extrusion mm in power of 3
M109 S160; set hot-end temperature to melt tip
G28 ; home all axes
M109 S190
M109 S220; set hot-end temperature to print
M208 S-0.05 F180 ; extrusion recover length and speed
M207 S0.5 F600 ; retraction

G21 ; set units to millimeters
G90 ; use absolute coordinates
M82 ; use absolute distances for extrusion
G92 E0
G10 ; retract
G92 E0
G1 Z0.320 F4800.000
G1 X47.394 Y27.364 F4800.000
G11 ; unretract
G92 E0
G1 X47.955 Y26.394 E0.12454 F1200.000
G1 X49.184 Y24.703 E0.35690
G1 X50.071 Y23.717 E0.50434
G1 X51.625 Y22.318 E0.73668
G1 X52.698 Y21.538 E0.88419
G1 X54.509 Y20.493 E1.11655
G1 X55.721 Y19.953 E1.26403
G1 X57.709 Y19.307 E1.49639
G1 X59.007 Y19.031 E1.64388
G1 X61.087 Y18.812 E1.87623
G1 X61.750 Y18.778 E1.95007
G1 X138.250 Y18.778 E10.45265
G1 X138.913 Y18.812 E10.52649
G1 X140.993 Y19.031 E10.75884 F1200.000
G1 X142.291 Y19.307 E10.90633
G1 X144.279 Y19.953 E11.13869
G1 X145.491 Y20.493 E11.28617
G1 X147.302 Y21.538 E11.51852
G1 X148.375 Y22.318 E11.66601
G1 X149.929 Y23.717 E11.89836
G1 X150.817 Y24.703 E12.04585
G1 X152.045 Y26.394 E12.27821
G1 X152.709 Y27.543 E12.42569
G1 X153.559 Y29.453 E12.65804
G1 X153.969 Y30.715 E12.80553
G1 X154.172 Y31.669 E12.91396
G1 X154.404 Y32.760 E13.03788
G1 X154.543 Y34.080 E13.18537
G1 X154.543 Y265.920 E38.95320
G1 X154.404 Y267.240 E39.10068
G1 X153.969 Y269.285 E39.33305
G1 X153.559 Y270.546 E39.48051
G1 X152.709 Y272.457 E39.71289
G1 X152.045 Y273.606 E39.86046
G1 X150.816 Y275.297 E40.09278
G1 X149.929 Y276.283 E40.24016
G1 X148.375 Y277.682 E40.47253
G1 X147.301 Y278.462 E40.62014
G1 X145.490 Y279.507 E40.85248
G1 X144.279 Y280.047 E40.99988
G1 X142.290 Y280.693 E41.23224
G1 X140.994 Y280.968 E41.37956
G1 X138.915 Y281.187 E41.61192
G1 X138.250 Y281.222 E41.68592
G1 X61.750 Y281.222 E50.18850
G1 X61.085 Y281.187 E50.26250
G1 X59.006 Y280.968 E50.49486
G1 X57.710 Y280.693 E50.64218
G1 X55.721 Y280.047 E50.87454
G1 X54.510 Y279.507 E51.02194
G1 X52.699 Y278.462 E51.25428
G1 X51.625 Y277.682 E51.40191
G1 X50.071 Y276.283 E51.63427
G1 X49.184 Y275.298 E51.78159
G1 X47.955 Y273.607 E52.01393
G1 X47.291 Y272.456 E52.16154
G1 X46.441 Y270.546 E52.39391
G1 X46.031 Y269.284 E52.54139
G1 X45.596 Y267.239 E52.77376
G1 X45.457 Y265.920 E52.92122
G1 X45.457 Y34.080 E78.68905
G1 X45.596 Y32.760 E78.83652
G1 X46.031 Y30.715 E79.06888
G1 X46.441 Y29.453 E79.21637
G1 X47.291 Y27.543 E79.44873
G1 X47.364 Y27.416 E79.46503
G10 ; retract
G92 E0
G1 X70.793 Y36.028 F4800.000
G11 ; unretract
G92 E0
G1 X129.207 Y36.028 E6.49251 F1200.000
G1 X129.207 Y34.175 E6.69847
G1 X129.603 Y32.315 E6.90973
G1 X130.376 Y30.579 E7.12100
G1 X131.493 Y29.041 E7.33227
G1 X132.906 Y27.769 E7.54353
G1 X134.552 Y26.819 E7.75480
G1 X136.360 Y26.231 E7.96607
G1 X138.250 Y26.033 E8.17733
G1 X140.140 Y26.231 E8.38860
G1 X141.948 Y26.819 E8.59987
G1 X143.594 Y27.769 E8.81113
G1 X145.007 Y29.041 E9.02240
G1 X146.124 Y30.579 E9.23367
G1 X146.897 Y32.315 E9.44493
G1 X147.293 Y34.175 E9.65620
G1 X147.293 Y36.075 E9.86747
G1 X146.897 Y37.935 E10.07873
G1 X146.539 Y38.739 E10.17662
G1 X146.124 Y39.671 E10.29000
G1 X145.007 Y41.209 E10.50127
G1 X143.594 Y42.481 E10.71253
G1 X141.948 Y43.431 E10.92380
G1 X140.140 Y44.019 E11.13507
G1 X137.347 Y44.312 E11.44721
G1 X137.347 Y255.688 E34.94047
G1 X140.140 Y255.982 E35.25261
G1 X141.948 Y256.569 E35.46389
G1 X143.594 Y257.519 E35.67514
G1 X145.007 Y258.791 E35.88642
G1 X146.124 Y260.329 E36.09766
G1 X146.897 Y262.065 E36.30893
G1 X147.293 Y263.925 E36.52022
G1 X147.293 Y265.825 E36.73142
G1 X146.897 Y267.685 E36.94270
G1 X146.124 Y269.421 E37.15398
G1 X145.007 Y270.959 E37.36522
G1 X143.594 Y272.231 E37.57649
G1 X141.948 Y273.181 E37.78774
G1 X140.140 Y273.768 E37.99903
G1 X138.250 Y273.967 E38.21029
G1 X136.360 Y273.768 E38.42155
G1 X134.552 Y273.181 E38.63283
G1 X132.906 Y272.231 E38.84408
G1 X131.493 Y270.959 E39.05535
G1 X130.376 Y269.421 E39.26659
G1 X129.603 Y267.685 E39.47787
G1 X129.207 Y265.825 E39.68915
G1 X129.207 Y263.972 E39.89508
G1 X70.793 Y263.972 E46.38759
G1 X70.793 Y265.825 E46.59352
G1 X70.397 Y267.685 E46.80480
G1 X69.624 Y269.421 E47.01607
G1 X68.507 Y270.959 E47.22732
G1 X67.094 Y272.231 E47.43859
G1 X65.448 Y273.181 E47.64984
G1 X63.640 Y273.768 E47.86112
G1 X61.750 Y273.967 E48.07239
G1 X59.860 Y273.768 E48.28364
G1 X58.052 Y273.181 E48.49493
G1 X56.406 Y272.231 E48.70618
G1 X54.993 Y270.959 E48.91745
G1 X53.876 Y269.421 E49.12870
G1 X53.103 Y267.685 E49.33997
G1 X52.707 Y265.825 E49.55125
G1 X52.707 Y263.925 E49.76246
G1 X53.103 Y262.065 E49.97374
G1 X53.876 Y260.329 E50.18501
G1 X54.993 Y258.791 E50.39626
G1 X56.406 Y257.519 E50.60753
G1 X58.052 Y256.569 E50.81878
G1 X59.860 Y255.982 E51.03006
G1 X62.653 Y255.688 E51.34221
G1 X62.653 Y44.312 E74.83547
G1 X59.860 Y44.019 E75.14761
G1 X58.052 Y43.431 E75.35888
G1 X56.406 Y42.481 E75.57015
G1 X54.993 Y41.209 E75.78141
G1 X53.876 Y39.671 E75.99268
G1 X53.103 Y37.935 E76.20395
G1 X52.707 Y36.075 E76.41521
G1 X52.707 Y34.175 E76.62648
G1 X53.103 Y32.315 E76.83775
G1 X53.876 Y30.579 E77.04901
G1 X54.993 Y29.041 E77.26028
G1 X56.406 Y27.769 E77.47154
G1 X58.052 Y26.819 E77.68281
G1 X59.860 Y26.231 E77.89408
G1 X61.750 Y26.033 E78.10535
G1 X63.640 Y26.231 E78.31661
G1 X65.448 Y26.819 E78.52788
G1 X67.094 Y27.769 E78.73915
G1 X68.507 Y29.041 E78.95041
G1 X69.624 Y30.579 E79.16168
G1 X70.397 Y32.315 E79.37295
G1 X70.793 Y34.175 E79.58421
G1 X70.793 Y35.968 E79.78350
G1 X71.140 Y35.680 F4800.000
G1 X128.860 Y35.680 E86.19880 F1200.000
G1 X128.860 Y34.138 E86.37022
G1 X129.270 Y32.207 E86.58960
G1 X130.073 Y30.404 E86.80898
G1 X131.233 Y28.807 E87.02836
G1 X132.700 Y27.487 E87.24774
G1 X134.410 Y26.500 E87.46712
G1 X136.287 Y25.890 E87.68651
G1 X138.250 Y25.683 E87.90589
G1 X140.213 Y25.890 E88.12527
G1 X142.090 Y26.500 E88.34465
G1 X143.800 Y27.487 E88.56403
G1 X145.266 Y28.807 E88.78341
G1 X146.427 Y30.404 E89.00279
G1 X147.229 Y32.207 E89.22217
G1 X147.640 Y34.138 E89.44156
G1 X147.640 Y36.112 E89.66094
G1 X147.229 Y38.043 E89.88032
G1 X146.856 Y38.881 E89.98226
G1 X146.427 Y39.846 E90.09970
G1 X145.266 Y41.443 E90.31908
G1 X143.800 Y42.763 E90.53846
G1 X142.090 Y43.750 E90.75784
G1 X140.213 Y44.360 E90.97723
G1 X137.695 Y44.625 E91.25867
G1 X137.695 Y255.375 E114.68242
G1 X140.213 Y255.640 E114.96386
G1 X142.090 Y256.250 E115.18325
G1 X143.800 Y257.237 E115.40262
G1 X145.267 Y258.558 E115.62201
G1 X146.427 Y260.154 E115.84136
G1 X147.230 Y261.958 E116.06076
G1 X147.640 Y263.888 E116.28015
G1 X147.640 Y265.862 E116.49947
G1 X147.229 Y267.792 E116.71887
G1 X146.427 Y269.596 E116.93826
G1 X145.266 Y271.192 E117.15762
G1 X143.800 Y272.513 E117.37701
G1 X142.090 Y273.500 E117.59637
G1 X140.213 Y274.110 E117.81576
G1 X138.250 Y274.317 E118.03514
G1 X136.287 Y274.110 E118.25452
G1 X134.410 Y273.500 E118.47391
G1 X132.700 Y272.513 E118.69328
G1 X131.234 Y271.192 E118.91267
G1 X130.073 Y269.596 E119.13202
G1 X129.271 Y267.792 E119.35142
G1 X128.860 Y265.862 E119.57081
G1 X128.860 Y264.320 E119.74219
G1 X71.140 Y264.320 E126.15749
G1 X71.140 Y265.862 E126.32888
G1 X70.730 Y267.792 E126.54827
G1 X69.927 Y269.596 E126.76766
G1 X68.766 Y271.192 E126.98702
G1 X67.300 Y272.513 E127.20641
G1 X65.590 Y273.500 E127.42577
G1 X63.713 Y274.110 E127.64517
G1 X61.750 Y274.317 E127.86455
G1 X59.787 Y274.110 E128.08392
G1 X57.910 Y273.500 E128.30332
G1 X56.200 Y272.513 E128.52269
G1 X54.734 Y271.192 E128.74207
G1 X53.573 Y269.596 E128.96143
G1 X52.770 Y267.792 E129.18082
G1 X52.360 Y265.862 E129.40022
G1 X52.360 Y263.888 E129.61954
G1 X52.770 Y261.958 E129.83893
G1 X53.573 Y260.154 E130.05832
G1 X54.734 Y258.558 E130.27769
G1 X56.200 Y257.237 E130.49707
G1 X57.910 Y256.250 E130.71643
G1 X59.787 Y255.640 E130.93583
G1 X62.305 Y255.375 E131.21727
G1 X62.305 Y44.625 E154.64102
G1 X59.787 Y44.360 E154.92247
G1 X57.910 Y43.750 E155.14185
G1 X56.200 Y42.763 E155.36123
G1 X54.734 Y41.443 E155.58061
G1 X53.573 Y39.846 E155.80000
G1 X52.770 Y38.043 E156.01937
G1 X52.360 Y36.112 E156.23876
G1 X52.360 Y34.138 E156.45814
G1 X52.770 Y32.207 E156.67752
G1 X53.573 Y30.404 E156.89690
G1 X54.734 Y28.807 E157.11629
G1 X56.200 Y27.487 E157.33566
G1 X57.910 Y26.500 E157.55504
G1 X59.787 Y25.890 E157.77443
G1 X61.750 Y25.683 E157.99381
G1 X63.713 Y25.890 E158.21319
G1 X65.590 Y26.500 E158.43258
G1 X67.300 Y27.487 E158.65196
G1 X68.766 Y28.807 E158.87133
G1 X69.927 Y30.404 E159.09072
G1 X70.730 Y32.207 E159.31010
G1 X71.140 Y34.138 E159.52948
G1 X71.140 Y35.620 E159.69422
G1 X71.487 Y35.333 F4800.000
G1 X128.513 Y35.333 E166.03232 F1200.000
G1 X128.513 Y34.102 E166.16918
G1 X128.938 Y32.099 E166.39668
G1 X129.771 Y30.230 E166.62418
G1 X130.974 Y28.574 E166.85167
G1 X132.495 Y27.204 E167.07917
G1 X134.268 Y26.181 E167.30666
G1 X136.214 Y25.548 E167.53416
G1 X138.250 Y25.334 E167.76166
G1 X140.286 Y25.548 E167.98915
G1 X142.232 Y26.181 E168.21665
G1 X144.005 Y27.204 E168.44414
G1 X145.526 Y28.574 E168.67164
G1 X146.729 Y30.230 E168.89914
G1 X147.562 Y32.099 E169.12663
G1 X147.987 Y34.102 E169.35413
G1 X147.987 Y36.148 E169.58163
G1 X147.562 Y38.151 E169.80912
G1 X147.174 Y39.022 E169.91512
G1 X146.729 Y40.020 E170.03662
G1 X145.526 Y41.676 E170.26411
G1 X144.005 Y43.046 E170.49161
G1 X142.232 Y44.069 E170.71911
G1 X140.286 Y44.702 E170.94660
G1 X138.042 Y44.938 E171.19734
G1 X138.042 Y255.062 E194.55158
G1 X140.286 Y255.299 E194.80233
G1 X142.232 Y255.931 E195.02983
G1 X144.005 Y256.954 E195.25731
G1 X145.526 Y258.324 E195.48482
G1 X146.729 Y259.980 E195.71228
G1 X147.562 Y261.850 E195.93979
G1 X147.987 Y263.852 E196.16731
G1 X147.987 Y265.898 E196.39474
G1 X147.562 Y267.900 E196.62225
G1 X146.729 Y269.770 E196.84976
G1 X145.526 Y271.426 E197.07723
G1 X144.005 Y272.796 E197.30473
G1 X142.232 Y273.819 E197.53221
G1 X140.286 Y274.451 E197.75971
G1 X138.250 Y274.666 E197.98721
G1 X136.214 Y274.451 E198.21471
G1 X134.268 Y273.819 E198.44221
G1 X132.495 Y272.796 E198.66969
G1 X130.974 Y271.426 E198.89720
G1 X129.771 Y269.770 E199.12466
G1 X128.938 Y267.900 E199.35218
G1 X128.513 Y265.898 E199.57969
G1 X128.513 Y264.667 E199.71652
G1 X71.487 Y264.667 E206.05461
G1 X71.487 Y265.898 E206.19145
G1 X71.062 Y267.900 E206.41896
G1 X70.229 Y269.770 E206.64647
G1 X69.026 Y271.426 E206.87394
G1 X67.505 Y272.796 E207.10144
G1 X65.732 Y273.819 E207.32892
G1 X63.786 Y274.451 E207.55643
G1 X61.750 Y274.666 E207.78393
G1 X59.714 Y274.451 E208.01142
G1 X57.768 Y273.819 E208.23893
G1 X55.995 Y272.796 E208.46641
G1 X54.474 Y271.426 E208.69391
G1 X53.271 Y269.770 E208.92138
G1 X52.438 Y267.900 E209.14889
G1 X52.013 Y265.898 E209.37640
G1 X52.013 Y263.852 E209.60383
G1 X52.438 Y261.850 E209.83134
G1 X53.271 Y259.980 E210.05885
G1 X54.474 Y258.324 E210.28633
G1 X55.995 Y256.954 E210.51383
G1 X57.768 Y255.931 E210.74131
G1 X59.714 Y255.299 E210.96881
G1 X61.958 Y255.062 E211.21955
G1 X61.958 Y44.938 E234.57380
G1 X59.714 Y44.702 E234.82454
G1 X57.768 Y44.069 E235.05204
G1 X55.995 Y43.046 E235.27953
G1 X54.474 Y41.676 E235.50702
G1 X53.271 Y40.020 E235.73453
G1 X52.438 Y38.151 E235.96202
G1 X52.013 Y36.148 E236.18952
G1 X52.013 Y34.102 E236.41701
G1 X52.438 Y32.099 E236.64451
G1 X53.271 Y30.230 E236.87200
G1 X54.474 Y28.574 E237.09951
G1 X55.995 Y27.204 E237.32700
G1 X57.768 Y26.181 E237.55449
G1 X59.714 Y25.548 E237.78199
G1 X61.750 Y25.334 E238.00949
G1 X63.786 Y25.548 E238.23698
G1 X65.732 Y26.181 E238.46448
G1 X67.505 Y27.204 E238.69198
G1 X69.026 Y28.574 E238.91947
G1 X70.229 Y30.230 E239.14697
G1 X71.062 Y32.099 E239.37447
G1 X71.487 Y34.102 E239.60196
G1 X71.487 Y35.273 E239.73216
G1 X71.487 Y35.733 F4800.000
G10 ; retract
G92 E0
G1 X69.655 Y31.232 F4800.000
G11 ; unretract
G92 E0
G1 X65.637 Y27.214 E0.63161 F1200.000
G1 X64.769 Y26.838 F4800.000
G1 X70.049 Y32.118 E1.46161 F1200.000
G1 X70.287 Y32.847 E1.54688
G1 X64.041 Y26.601 E2.52868
G1 X63.362 Y26.413 E2.60708
G1 X70.420 Y33.471 E3.71655
G1 X70.552 Y34.095 E3.78744
G1 X62.813 Y26.355 E5.00405
G1 X62.264 Y26.297 E5.06540
G1 X70.591 Y34.625 E6.37440
G1 X70.591 Y35.116 E6.42900
G1 X61.715 Y26.240 E7.82429
G1 X61.263 Y26.279 E7.87471
G1 X70.591 Y35.607 E9.34103
G1 X70.591 Y36.098 E9.39563
G1 X60.819 Y26.326 E10.93183
G1 X60.374 Y26.373 E10.98151
G1 X137.146 Y103.144 E23.04971
G1 X137.146 Y102.653 E23.10431
G1 X70.722 Y36.229 E33.54587
G1 X71.213 Y36.229 E33.60047
G1 X137.146 Y102.162 E43.96481
G1 X137.146 Y101.671 E44.01941
G1 X71.704 Y36.229 E54.30653
G1 X72.196 Y36.229 E54.36113
G1 X137.146 Y101.179 E64.57103
G1 X137.146 Y100.688 E64.62564
G1 X72.687 Y36.229 E74.75831
G1 X73.178 Y36.229 E74.81292
G1 X137.146 Y100.197 E84.86837
G1 X137.146 Y99.706 E84.92298
G1 X73.669 Y36.229 E94.90122
G1 X74.161 Y36.229 E94.95582
G1 X137.146 Y99.214 E104.85684
G1 X137.146 Y98.723 E104.91144
G1 X74.652 Y36.229 E114.73524
G1 X75.143 Y36.229 E114.78984
G1 X137.146 Y98.232 E124.53641
G1 X137.146 Y97.741 E124.59102
G1 X75.634 Y36.229 E134.26037
G1 X76.125 Y36.229 E134.31498
G1 X137.146 Y97.250 E143.90711
G1 X137.146 Y96.758 E143.96172
G1 X76.617 Y36.229 E153.47663
G1 X77.108 Y36.229 E153.53123
G1 X137.146 Y96.267 E162.96893
G1 X137.146 Y95.776 E163.02353
G1 X77.599 Y36.229 E172.38401
G1 X78.090 Y36.229 E172.43861
G1 X137.146 Y95.285 E181.72187
G1 X137.146 Y94.793 E181.77647
G1 X78.582 Y36.229 E190.98250
G1 X79.073 Y36.229 E191.03711
G1 X137.146 Y94.302 E200.16592
G1 X137.146 Y93.811 E200.22052
G1 X79.564 Y36.229 E209.27212
G1 X80.055 Y36.229 E209.32672
G1 X137.146 Y93.320 E218.30109
G1 X137.146 Y92.828 E218.35570
G1 X80.547 Y36.229 E227.25285
G1 X81.038 Y36.229 E227.30745
G1 X137.146 Y92.337 E236.12739
G1 X137.146 Y91.846 E236.18199
G1 X81.529 Y36.229 E244.92470
G1 X82.020 Y36.229 E244.97931
G1 X137.146 Y91.355 E253.64480
G1 X137.146 Y90.863 E253.69940
G1 X82.512 Y36.229 E262.28767
G1 X83.003 Y36.229 E262.34228
G1 X137.146 Y90.372 E270.85333
G1 X137.146 Y89.881 E270.90793
G1 X83.494 Y36.229 E279.34176
G1 X83.985 Y36.229 E279.39637
G1 X137.146 Y89.390 E287.75298
G1 X137.146 Y88.898 E287.80758
G1 X84.476 Y36.229 E296.08697
G1 X84.968 Y36.229 E296.14157
G1 X137.146 Y88.407 E304.34374
G1 X137.146 Y87.916 E304.39835
G1 X85.459 Y36.229 E312.52330
G1 X85.950 Y36.229 E312.57790
G1 X137.146 Y87.425 E320.62563
G1 X137.146 Y86.934 E320.68023
G1 X86.441 Y36.229 E328.65074
G1 X86.933 Y36.229 E328.70535
G1 X137.146 Y86.442 E336.59864
G1 X137.146 Y85.951 E336.65324
G1 X87.424 Y36.229 E344.46931
G1 X87.915 Y36.229 E344.52391
G1 X137.146 Y85.460 E352.26276
G1 X137.146 Y84.969 E352.31736
G1 X88.406 Y36.229 E359.97899
G1 X88.898 Y36.229 E360.03360
G1 X137.146 Y84.477 E367.61801
G1 X137.146 Y83.986 E367.67261
G1 X89.389 Y36.229 E375.17980
G1 X89.880 Y36.229 E375.23440
G1 X137.146 Y83.495 E382.66437
G1 X137.146 Y83.004 E382.71897
G1 X90.371 Y36.229 E390.07172
G1 X90.863 Y36.229 E390.12632
G1 X137.146 Y82.512 E397.40185
G1 X137.146 Y82.021 E397.45645
G1 X91.354 Y36.229 E404.65476
G1 X91.845 Y36.229 E404.70936
G1 X137.146 Y81.530 E411.83045
G1 X137.146 Y81.039 E411.88505
G1 X92.336 Y36.229 E418.92892
G1 X92.828 Y36.229 E418.98352
G1 X137.146 Y80.547 E425.95017
G1 X137.146 Y80.056 E426.00477
G1 X93.319 Y36.229 E432.89420
G1 X93.810 Y36.229 E432.94880
G1 X137.146 Y79.565 E439.76101
G1 X137.146 Y79.074 E439.81561
G1 X94.301 Y36.229 E446.55059
G1 X94.792 Y36.229 E446.60520
G1 X137.146 Y78.583 E453.26296
G1 X137.146 Y78.091 E453.31757
G1 X95.284 Y36.229 E459.89811
G1 X95.775 Y36.229 E459.95271
G1 X137.146 Y77.600 E466.45604
G1 X137.146 Y77.109 E466.51064
G1 X96.266 Y36.229 E472.93674
G1 X96.757 Y36.229 E472.99135
G1 X137.146 Y76.618 E479.34023
G1 X137.146 Y76.126 E479.39483
G1 X97.249 Y36.229 E485.66650
G1 X97.740 Y36.229 E485.72110
G1 X137.146 Y75.635 E491.91555
G1 X137.146 Y75.144 E491.97015
G1 X98.231 Y36.229 E498.08737
G1 X98.722 Y36.229 E498.14197
