; generated by Slic3r 1.2.9 on 2018-01-02 at 18:58:53

; external perimeters extrusion width = 0.50mm
; perimeters extrusion width = 0.50mm
; infill extrusion width = 0.50mm
; solid infill extrusion width = 0.50mm
; top infill extrusion width = 0.50mm

M107
M190 S70 ; set bed temperature
M117 Starting...
M200 D2.8500 ; set filament diameter and switch to volumetric extrusion mm in power of 3
M109 S160; set hot-end temperature to melt tip
G28 ; home all axes
M109 S190
M109 S220; set hot-end temperature to print
M208 S-0.05 F180 ; extrusion recover length and speed
M207 S0.5 F600 ; retraction

G21 ; set units to millimeters
G90 ; use absolute coordinates
M82 ; use absolute distances for extrusion
G92 E0
G10 ; retract
G92 E0
G1 Z0.320 F4800.000
G1 X47.291 Y24.793 F4800.000
G11 ; unretract
G92 E0
G1 X47.955 Y23.644 E0.14751 F1200.000
G1 X49.184 Y21.953 E0.37988
G1 X50.071 Y20.967 E0.52731
G1 X51.625 Y19.568 E0.75966
G1 X52.698 Y18.788 E0.90717
G1 X54.509 Y17.743 E1.13953
G1 X55.721 Y17.203 E1.28700
G1 X57.709 Y16.557 E1.51937
G1 X59.007 Y16.281 E1.66685
G1 X61.087 Y16.062 E1.89921
G1 X61.750 Y16.028 E1.97305
G1 X138.250 Y16.028 E10.47562
G1 X138.913 Y16.062 E10.54946
G1 X140.993 Y16.281 E10.78182 F1200.000
G1 X142.291 Y16.557 E10.92930
G1 X144.279 Y17.203 E11.16166
G1 X145.491 Y17.743 E11.30914
G1 X147.302 Y18.788 E11.54150
G1 X148.375 Y19.568 E11.68898
G1 X149.929 Y20.967 E11.92134
G1 X150.817 Y21.953 E12.06882
G1 X152.045 Y23.644 E12.30118
G1 X152.709 Y24.793 E12.44866
G1 X153.559 Y26.703 E12.68102
G1 X153.969 Y27.965 E12.82850
G1 X154.172 Y28.919 E12.93693
G1 X154.404 Y30.010 E13.06086
G1 X154.543 Y31.330 E13.20834
G1 X154.543 Y268.670 E39.58747
G1 X154.404 Y269.990 E39.73494
G1 X153.969 Y272.035 E39.96731
G1 X153.559 Y273.296 E40.11478
G1 X152.709 Y275.206 E40.34715
G1 X152.045 Y276.356 E40.49472
G1 X150.816 Y278.047 E40.72705
G1 X149.929 Y279.033 E40.87444
G1 X148.375 Y280.432 E41.10681
G1 X147.301 Y281.212 E41.25441
G1 X145.490 Y282.257 E41.48675
G1 X144.279 Y282.797 E41.63415
G1 X142.291 Y283.443 E41.86650
G1 X140.994 Y283.718 E42.01383
G1 X138.915 Y283.937 E42.24620
G1 X138.250 Y283.972 E42.32019
G1 X61.750 Y283.972 E50.82277
G1 X61.085 Y283.937 E50.89677
G1 X59.006 Y283.718 E51.12913
G1 X57.709 Y283.443 E51.27646
G1 X55.721 Y282.797 E51.50882
G1 X54.510 Y282.257 E51.65620
G1 X52.699 Y281.212 E51.88854
G1 X51.625 Y280.432 E52.03618
G1 X50.071 Y279.033 E52.26854
G1 X49.184 Y278.048 E52.41587
G1 X47.955 Y276.357 E52.64821
G1 X47.291 Y275.206 E52.79581
G1 X46.441 Y273.296 E53.02819
G1 X46.031 Y272.034 E53.17567
G1 X45.596 Y269.989 E53.40803
G1 X45.457 Y268.670 E53.55549
G1 X45.457 Y31.330 E79.93462
G1 X45.596 Y30.010 E80.08209
G1 X46.031 Y27.965 E80.31444
G1 X46.441 Y26.703 E80.46194
G1 X47.267 Y24.848 E80.68762
G10 ; retract
G92 E0
G1 X70.793 Y33.278 F4800.000
G11 ; unretract
G92 E0
G1 X129.207 Y33.278 E6.49251 F1200.000
G1 X129.207 Y31.425 E6.69847
G1 X129.603 Y29.565 E6.90973
G1 X130.376 Y27.829 E7.12100
G1 X131.493 Y26.291 E7.33227
G1 X132.906 Y25.019 E7.54353
G1 X134.552 Y24.069 E7.75480
G1 X136.360 Y23.481 E7.96607
G1 X138.250 Y23.283 E8.17733
G1 X140.140 Y23.481 E8.38860
G1 X141.948 Y24.069 E8.59987
G1 X143.594 Y25.019 E8.81113
G1 X145.007 Y26.291 E9.02240
G1 X146.124 Y27.829 E9.23367
G1 X146.897 Y29.565 E9.44493
G1 X147.293 Y31.425 E9.65620
G1 X147.293 Y33.325 E9.86747
G1 X146.897 Y35.185 E10.07873
G1 X146.539 Y35.989 E10.17662
G1 X146.124 Y36.921 E10.29000
G1 X145.007 Y38.459 E10.50127
G1 X143.594 Y39.731 E10.71253
G1 X141.948 Y40.681 E10.92380
G1 X140.140 Y41.269 E11.13507
G1 X137.347 Y41.562 E11.44721
G1 X137.347 Y258.438 E35.55176
G1 X140.140 Y258.732 E35.86391
G1 X141.948 Y259.319 E36.07519
G1 X143.594 Y260.269 E36.28644
G1 X145.007 Y261.541 E36.49772
G1 X146.124 Y263.079 E36.70895
G1 X146.897 Y264.815 E36.92023
G1 X147.293 Y266.675 E37.13151
G1 X147.293 Y268.575 E37.34271
G1 X146.897 Y270.435 E37.55400
G1 X146.124 Y272.171 E37.76528
G1 X145.007 Y273.709 E37.97651
G1 X143.594 Y274.981 E38.18779
G1 X141.948 Y275.931 E38.39904
G1 X140.140 Y276.518 E38.61032
G1 X138.250 Y276.717 E38.82158
G1 X136.360 Y276.518 E39.03284
G1 X134.552 Y275.931 E39.24413
G1 X132.906 Y274.981 E39.45537
G1 X131.493 Y273.709 E39.66665
G1 X130.376 Y272.171 E39.87789
G1 X129.603 Y270.435 E40.08917
G1 X129.207 Y268.575 E40.30045
G1 X129.207 Y266.722 E40.50638
G1 X70.793 Y266.722 E46.99888
G1 X70.793 Y268.575 E47.20481
G1 X70.397 Y270.435 E47.41609
G1 X69.624 Y272.171 E47.62737
G1 X68.507 Y273.709 E47.83861
G1 X67.094 Y274.981 E48.04989
G1 X65.448 Y275.931 E48.26113
G1 X63.640 Y276.518 E48.47242
G1 X61.750 Y276.717 E48.68368
G1 X59.860 Y276.518 E48.89494
G1 X58.052 Y275.931 E49.10623
G1 X56.406 Y274.981 E49.31748
G1 X54.993 Y273.709 E49.52874
G1 X53.876 Y272.171 E49.73999
G1 X53.103 Y270.435 E49.95127
G1 X52.707 Y268.575 E50.16255
G1 X52.707 Y266.675 E50.37375
G1 X53.103 Y264.815 E50.58503
G1 X53.876 Y263.079 E50.79631
G1 X54.993 Y261.541 E51.00756
G1 X56.406 Y260.269 E51.21883
G1 X58.052 Y259.319 E51.43007
G1 X59.860 Y258.732 E51.64136
G1 X62.653 Y258.438 E51.95350
G1 X62.653 Y41.562 E76.05806
G1 X59.860 Y41.269 E76.37020
G1 X58.052 Y40.681 E76.58147
G1 X56.406 Y39.731 E76.79274
G1 X54.993 Y38.459 E77.00400
G1 X53.876 Y36.921 E77.21527
G1 X53.103 Y35.185 E77.42653
G1 X52.707 Y33.325 E77.63780
G1 X52.707 Y31.425 E77.84907
G1 X53.103 Y29.565 E78.06034
G1 X53.876 Y27.829 E78.27160
G1 X54.993 Y26.291 E78.48287
G1 X56.406 Y25.019 E78.69413
G1 X58.052 Y24.069 E78.90540
G1 X59.860 Y23.481 E79.11667
G1 X61.750 Y23.283 E79.32794
G1 X63.640 Y23.481 E79.53920
G1 X65.448 Y24.069 E79.75047
G1 X67.094 Y25.019 E79.96174
G1 X68.507 Y26.291 E80.17300
G1 X69.624 Y27.829 E80.38427
G1 X70.397 Y29.565 E80.59554
G1 X70.793 Y31.425 E80.80680
G1 X70.793 Y33.218 E81.00609
G1 X71.140 Y32.930 F4800.000
G1 X128.860 Y32.930 E87.42139 F1200.000
G1 X128.860 Y31.388 E87.59281
G1 X129.270 Y29.457 E87.81219
G1 X130.073 Y27.654 E88.03157
G1 X131.233 Y26.057 E88.25095
G1 X132.700 Y24.737 E88.47033
G1 X134.410 Y23.750 E88.68971
G1 X136.287 Y23.140 E88.90909
G1 X138.250 Y22.933 E89.12848
G1 X140.213 Y23.140 E89.34786
G1 X142.090 Y23.750 E89.56724
G1 X143.800 Y24.737 E89.78662
G1 X145.266 Y26.057 E90.00600
G1 X146.427 Y27.654 E90.22538
G1 X147.229 Y29.457 E90.44476
G1 X147.640 Y31.388 E90.66415
G1 X147.640 Y33.362 E90.88353
G1 X147.229 Y35.293 E91.10291
G1 X146.856 Y36.131 E91.20485
G1 X146.427 Y37.096 E91.32229
G1 X145.266 Y38.693 E91.54167
G1 X143.800 Y40.013 E91.76105
G1 X142.090 Y41.000 E91.98043
G1 X140.213 Y41.610 E92.19982
G1 X137.695 Y41.875 E92.48126
G1 X137.695 Y258.125 E116.51630
G1 X140.213 Y258.390 E116.79775
G1 X142.090 Y259.000 E117.01714
G1 X143.800 Y259.987 E117.23650
G1 X145.267 Y261.308 E117.45589
G1 X146.427 Y262.904 E117.67525
G1 X147.229 Y264.708 E117.89464
G1 X147.640 Y266.638 E118.11404
G1 X147.640 Y268.612 E118.33335
G1 X147.229 Y270.542 E118.55275
G1 X146.427 Y272.346 E118.77215
G1 X145.267 Y273.942 E118.99150
G1 X143.800 Y275.263 E119.21089
G1 X142.090 Y276.250 E119.43026
G1 X140.213 Y276.860 E119.64965
G1 X138.250 Y277.067 E119.86903
G1 X136.287 Y276.860 E120.08841
G1 X134.410 Y276.250 E120.30780
G1 X132.700 Y275.263 E120.52716
G1 X131.233 Y273.942 E120.74655
G1 X130.073 Y272.346 E120.96590
G1 X129.271 Y270.542 E121.18530
G1 X128.860 Y268.612 E121.40470
G1 X128.860 Y267.070 E121.57608
G1 X71.140 Y267.070 E127.99138
G1 X71.140 Y268.612 E128.16276
G1 X70.730 Y270.542 E128.38215
G1 X69.927 Y272.346 E128.60155
G1 X68.766 Y273.942 E128.82091
G1 X67.300 Y275.263 E129.04029
G1 X65.590 Y276.250 E129.25965
G1 X63.713 Y276.860 E129.47905
G1 X61.750 Y277.067 E129.69843
G1 X59.787 Y276.860 E129.91781
G1 X57.910 Y276.250 E130.13721
G1 X56.200 Y275.263 E130.35657
G1 X54.734 Y273.942 E130.57595
G1 X53.573 Y272.346 E130.79531
G1 X52.770 Y270.542 E131.01471
G1 X52.360 Y268.612 E131.23410
G1 X52.360 Y266.638 E131.45342
G1 X52.770 Y264.708 E131.67282
G1 X53.573 Y262.904 E131.89221
G1 X54.734 Y261.308 E132.11157
G1 X56.200 Y259.987 E132.33095
G1 X57.910 Y259.000 E132.55032
G1 X59.787 Y258.390 E132.76972
G1 X62.305 Y258.125 E133.05116
G1 X62.305 Y41.875 E157.08620
G1 X59.787 Y41.610 E157.36764
G1 X57.910 Y41.000 E157.58703
G1 X56.200 Y40.013 E157.80641
G1 X54.734 Y38.693 E158.02579
G1 X53.573 Y37.096 E158.24518
G1 X52.770 Y35.293 E158.46455
G1 X52.360 Y33.362 E158.68393
G1 X52.360 Y31.388 E158.90332
G1 X52.770 Y29.457 E159.12270
G1 X53.573 Y27.654 E159.34208
G1 X54.734 Y26.057 E159.56146
G1 X56.200 Y24.737 E159.78084
G1 X57.910 Y23.750 E160.00022
G1 X59.787 Y23.140 E160.21961
G1 X61.750 Y22.933 E160.43899
G1 X63.713 Y23.140 E160.65837
G1 X65.590 Y23.750 E160.87775
G1 X67.300 Y24.737 E161.09714
G1 X68.766 Y26.057 E161.31651
G1 X69.927 Y27.654 E161.53590
G1 X70.730 Y29.457 E161.75528
G1 X71.140 Y31.388 E161.97466
G1 X71.140 Y32.870 E162.13940
G1 X71.487 Y32.583 F4800.000
G1 X128.513 Y32.583 E168.47750 F1200.000
G1 X128.513 Y31.352 E168.61436
G1 X128.938 Y29.349 E168.84186
G1 X129.771 Y27.480 E169.06935
G1 X130.974 Y25.824 E169.29685
G1 X132.495 Y24.454 E169.52435
G1 X134.268 Y23.431 E169.75184
G1 X136.214 Y22.798 E169.97934
G1 X138.250 Y22.584 E170.20684
G1 X140.286 Y22.798 E170.43433
G1 X142.232 Y23.431 E170.66183
G1 X144.005 Y24.454 E170.88932
G1 X145.526 Y25.824 E171.11682
G1 X146.729 Y27.480 E171.34432
G1 X147.562 Y29.349 E171.57181
G1 X147.987 Y31.352 E171.79931
G1 X147.987 Y33.398 E172.02680
G1 X147.562 Y35.401 E172.25430
G1 X147.174 Y36.272 E172.36030
G1 X146.729 Y37.270 E172.48180
G1 X145.526 Y38.926 E172.70929
G1 X144.005 Y40.296 E172.93679
G1 X142.232 Y41.319 E173.16428
G1 X140.286 Y41.952 E173.39178
G1 X138.042 Y42.188 E173.64252
G1 X138.042 Y257.812 E197.60806
G1 X140.286 Y258.049 E197.85880
G1 X142.232 Y258.681 E198.08631
G1 X144.005 Y259.704 E198.31378
G1 X145.526 Y261.074 E198.54129
G1 X146.729 Y262.730 E198.76876
G1 X147.562 Y264.600 E198.99627
G1 X147.987 Y266.602 E199.22378
G1 X147.987 Y268.648 E199.45121
G1 X147.562 Y270.650 E199.67872
G1 X146.729 Y272.520 E199.90623
G1 X145.526 Y274.176 E200.13370
G1 X144.005 Y275.546 E200.36121
G1 X142.232 Y276.569 E200.58869
G1 X140.286 Y277.201 E200.81619
G1 X138.250 Y277.416 E201.04369
G1 X136.214 Y277.201 E201.27118
G1 X134.268 Y276.569 E201.49868
G1 X132.495 Y275.546 E201.72616
G1 X130.974 Y274.176 E201.95367
G1 X129.771 Y272.520 E202.18114
G1 X128.938 Y270.650 E202.40865
G1 X128.513 Y268.648 E202.63616
G1 X128.513 Y267.417 E202.77299
G1 X71.487 Y267.417 E209.11109
G1 X71.487 Y268.648 E209.24792
G1 X71.062 Y270.650 E209.47543
G1 X70.229 Y272.520 E209.70294
G1 X69.026 Y274.176 E209.93042
G1 X67.505 Y275.546 E210.15792
G1 X65.732 Y276.569 E210.38540
G1 X63.786 Y277.201 E210.61290
G1 X61.750 Y277.416 E210.84040
G1 X59.714 Y277.201 E211.06790
G1 X57.768 Y276.569 E211.29540
G1 X55.995 Y275.546 E211.52288
G1 X54.474 Y274.176 E211.75038
G1 X53.271 Y272.520 E211.97785
G1 X52.438 Y270.650 E212.20537
G1 X52.013 Y268.648 E212.43287
G1 X52.013 Y266.602 E212.66031
G1 X52.438 Y264.600 E212.88782
G1 X53.271 Y262.730 E213.11533
G1 X54.474 Y261.074 E213.34280
G1 X55.995 Y259.704 E213.57030
G1 X57.768 Y258.681 E213.79778
G1 X59.714 Y258.049 E214.02529
G1 X61.958 Y257.812 E214.27603
G1 X61.958 Y42.188 E238.24157
G1 X59.714 Y41.952 E238.49231
G1 X57.768 Y41.319 E238.71981
G1 X55.995 Y40.296 E238.94730
G1 X54.474 Y38.926 E239.17479
G1 X53.271 Y37.270 E239.40230
G1 X52.438 Y35.401 E239.62979
G1 X52.013 Y33.398 E239.85728
G1 X52.013 Y31.352 E240.08478
G1 X52.438 Y29.349 E240.31228
G1 X53.271 Y27.480 E240.53977
G1 X54.474 Y25.824 E240.76727
G1 X55.995 Y24.454 E240.99476
G1 X57.768 Y23.431 E241.22226
G1 X59.714 Y22.798 E241.44976
G1 X61.750 Y22.584 E241.67726
G1 X63.786 Y22.798 E241.90475
G1 X65.732 Y23.431 E242.13225
G1 X67.505 Y24.454 E242.35975
G1 X69.026 Y25.824 E242.58724
G1 X70.229 Y27.480 E242.81474
G1 X71.062 Y29.349 E243.04224
G1 X71.487 Y31.352 E243.26973
G1 X71.487 Y32.523 E243.39993
G1 X71.487 Y32.983 F4800.000
G10 ; retract
G92 E0
G1 X69.673 Y28.522 F4800.000
G11 ; unretract
G92 E0
G1 X65.585 Y24.434 E0.64281 F1200.000
G1 X64.736 Y24.077 F4800.000
G1 X70.067 Y29.408 E1.48103 F1200.000
G1 X70.293 Y30.125 E1.56468
G1 X64.008 Y23.840 E2.55293
G1 X63.337 Y23.660 E2.63025
G1 X70.426 Y30.749 E3.74496
G1 X70.558 Y31.373 E3.81589
G1 X62.787 Y23.602 E5.03779
G1 X62.238 Y23.545 E5.09918
G1 X70.591 Y31.897 E6.41256
G1 X70.591 Y32.389 E6.46719
G1 X61.689 Y23.487 E7.86691
G1 X61.242 Y23.531 E7.91687
G1 X70.591 Y32.880 E9.38689
G1 X70.591 Y33.372 E9.44152
G1 X60.797 Y23.578 E10.98146
G1 X60.353 Y23.625 E11.03117
G1 X137.146 Y100.418 E23.10616
G1 X137.146 Y99.926 E23.16079
G1 X70.699 Y33.479 E33.60899
G1 X71.190 Y33.479 E33.66363
G1 X137.146 Y99.435 E44.03457
G1 X137.146 Y98.944 E44.08920
G1 X71.681 Y33.479 E54.38288
G1 X72.173 Y33.479 E54.43751
G1 X137.146 Y98.452 E64.65392
G1 X137.146 Y97.961 E64.70856
G1 X72.664 Y33.479 E74.84770
G1 X73.156 Y33.479 E74.90234
G1 X137.146 Y97.469 E84.96422
G1 X137.146 Y96.978 E85.01885
G1 X73.647 Y33.479 E95.00347
G1 X74.138 Y33.479 E95.05810
G1 X137.146 Y96.487 E104.96545
G1 X137.146 Y95.995 E105.02009
G1 X74.630 Y33.479 E114.85017
G1 X75.121 Y33.479 E114.90481
G1 X137.146 Y95.504 E124.65763
G1 X137.146 Y95.013 E124.71227
G1 X75.612 Y33.479 E134.38782
G1 X76.104 Y33.479 E134.44246
G1 X137.146 Y94.521 E144.04075
G1 X137.146 Y94.030 E144.09539
G1 X76.595 Y33.479 E153.61642
G1 X77.087 Y33.479 E153.67105
G1 X137.146 Y93.538 E163.11481
G1 X137.146 Y93.047 E163.16945
G1 X77.578 Y33.479 E172.53595
G1 X78.069 Y33.479 E172.59058
G1 X137.146 Y92.556 E181.87982
G1 X137.146 Y92.064 E181.93445
G1 X78.561 Y33.479 E191.14642
G1 X79.052 Y33.479 E191.20106
G1 X137.146 Y91.573 E200.33576
G1 X137.146 Y91.082 E200.39040
G1 X79.543 Y33.479 E209.44784
G1 X80.035 Y33.479 E209.50247
G1 X137.146 Y90.590 E218.48265
G1 X137.146 Y90.099 E218.53729
G1 X80.526 Y33.479 E227.44020
G1 X81.018 Y33.479 E227.49483
G1 X137.146 Y89.607 E236.32048
G1 X137.146 Y89.116 E236.37512
G1 X81.509 Y33.479 E245.12350
G1 X82.000 Y33.479 E245.17813
G1 X137.146 Y88.625 E253.84925
G1 X137.146 Y88.133 E253.90389
G1 X82.492 Y33.479 E262.49774
G1 X82.983 Y33.479 E262.55238
G1 X137.146 Y87.642 E271.06897
G1 X137.146 Y87.151 E271.12360
G1 X83.474 Y33.479 E279.56293
G1 X83.966 Y33.479 E279.61756
G1 X137.146 Y86.659 E287.97962
G1 X137.146 Y86.168 E288.03426
G1 X84.457 Y33.479 E296.31905
G1 X84.949 Y33.479 E296.37369
G1 X137.146 Y85.676 E304.58122
G1 X137.146 Y85.185 E304.63585
G1 X85.440 Y33.479 E312.76612
G1 X85.931 Y33.479 E312.82075
G1 X137.146 Y84.694 E320.87376
G1 X137.146 Y84.202 E320.92839
G1 X86.423 Y33.479 E328.90413
G1 X86.914 Y33.479 E328.95876
G1 X137.146 Y83.711 E336.85724
G1 X137.146 Y83.220 E336.91187
G1 X87.405 Y33.479 E344.73308
G1 X87.897 Y33.479 E344.78771
G1 X137.146 Y82.728 E352.53166
G1 X137.146 Y82.237 E352.58629
G1 X88.388 Y33.479 E360.25297
G1 X88.880 Y33.479 E360.30761
G1 X137.146 Y81.745 E367.89702
G1 X137.146 Y81.254 E367.95166
G1 X89.371 Y33.479 E375.46381
G1 X89.862 Y33.479 E375.51844
G1 X137.146 Y80.763 E382.95333
G1 X137.146 Y80.271 E383.00796
G1 X90.354 Y33.479 E390.36558
G1 X90.845 Y33.479 E390.42022
G1 X137.146 Y79.780 E397.70058
G1 X137.146 Y79.288 E397.75521
G1 X91.336 Y33.479 E404.95830
G1 X91.828 Y33.479 E405.01294
G1 X137.146 Y78.797 E412.13876
G1 X137.146 Y78.306 E412.19340
G1 X92.319 Y33.479 E419.24196
G1 X92.811 Y33.479 E419.29660
G1 X137.146 Y77.814 E426.26790
G1 X137.146 Y77.323 E426.32253
G1 X93.302 Y33.479 E433.21656
G1 X93.793 Y33.479 E433.27120
G1 X137.146 Y76.832 E440.08797
G1 X137.146 Y76.340 E440.14260
G1 X94.285 Y33.479 E446.88211
G1 X94.776 Y33.479 E446.93674
G1 X137.146 Y75.849 E453.59898
G1 X137.146 Y75.357 E453.65362
G1 X95.268 Y33.479 E460.23859
G1 X95.759 Y33.479 E460.29323
G1 X137.146 Y74.866 E466.80094
G1 X137.146 Y74.375 E466.85557
G1 X96.250 Y33.479 E473.28602
G1 X96.742 Y33.479 E473.34065
G1 X137.146 Y73.883 E479.69384
G1 X137.146 Y73.392 E479.74847
G1 X97.233 Y33.479 E486.02439
G1 X97.724 Y33.479 E486.07902
G1 X137.146 Y72.901 E492.27768
G1 X137.146 Y72.409 E492.33231
G1 X98.216 Y33.479 E498.45370
G1 X98.707 Y33.479 E498.50833
G1 X137.146 Y71.918 E504.55246
