; generated by Slic3r 1.2.9 on 2018-01-02 at 18:59:01

; external perimeters extrusion width = 0.50mm
; perimeters extrusion width = 0.50mm
; infill extrusion width = 0.50mm
; solid infill extrusion width = 0.50mm
; top infill extrusion width = 0.50mm

M107
M190 S70 ; set bed temperature
M117 Starting...
M200 D2.8500 ; set filament diameter and switch to volumetric extrusion mm in power of 3
M109 S160; set hot-end temperature to melt tip
G28 ; home all axes
M109 S190
M109 S220; set hot-end temperature to print
M208 S-0.05 F180 ; extrusion recover length and speed
M207 S0.5 F600 ; retraction

G21 ; set units to millimeters
G90 ; use absolute coordinates
M82 ; use absolute distances for extrusion
G92 E0
G10 ; retract
G92 E0
G1 Z0.320 F4800.000
G1 X46.034 Y26.578 F4800.000
G11 ; unretract
G92 E0
G1 X47.576 Y24.455 E0.29158 F1200.000
G1 X48.464 Y23.469 E0.43907
G1 X50.406 Y21.720 E0.72951
G1 X51.479 Y20.940 E0.87700
G1 X53.742 Y19.634 E1.16744
G1 X54.954 Y19.094 E1.31493
G1 X57.440 Y18.287 E1.60537
G1 X58.738 Y18.011 E1.75284
G1 X61.336 Y17.737 E2.04328
G1 X62.000 Y17.703 E2.11714
G1 X138.000 Y17.703 E10.56414
G1 X138.664 Y17.737 E10.63799
G1 X141.262 Y18.011 E10.92844 F1200.000
G1 X142.560 Y18.287 E11.07590
G1 X145.046 Y19.094 E11.36635
G1 X146.258 Y19.634 E11.51384
G1 X148.521 Y20.940 E11.80428
G1 X149.594 Y21.720 E11.95176
G1 X151.536 Y23.469 E12.24221
G1 X152.424 Y24.455 E12.38970
G1 X153.960 Y26.569 E12.68014
G1 X154.624 Y27.718 E12.82762
G1 X155.687 Y30.106 E13.11807
G1 X156.097 Y31.368 E13.26555
G1 X156.640 Y33.924 E13.55600
G1 X156.779 Y35.243 E13.70348
G1 X156.779 Y264.757 E39.21271
G1 X156.640 Y266.077 E39.36020
G1 X156.097 Y268.633 E39.65063
G1 X155.687 Y269.895 E39.79815
G1 X154.624 Y272.282 E40.08857
G1 X153.960 Y273.431 E40.23603
G1 X152.424 Y275.545 E40.52647
G1 X151.537 Y276.530 E40.67384
G1 X149.595 Y278.279 E40.96432
G1 X148.520 Y279.061 E41.11203
G1 X146.257 Y280.367 E41.40244
G1 X145.047 Y280.905 E41.54966
G1 X142.561 Y281.713 E41.84012
G1 X141.262 Y281.990 E41.98777
G1 X138.663 Y282.263 E42.27821
G1 X138.000 Y282.297 E42.35202
G1 X62.000 Y282.297 E50.79901
G1 X61.337 Y282.263 E50.87282
G1 X58.738 Y281.990 E51.16327
G1 X57.439 Y281.713 E51.31091
G1 X54.953 Y280.905 E51.60136
G1 X53.743 Y280.367 E51.74859
G1 X51.480 Y279.061 E52.03900
G1 X50.405 Y278.279 E52.18671
G1 X48.463 Y276.530 E52.47718
G1 X47.576 Y275.545 E52.62456
G1 X46.040 Y273.431 E52.91500
G1 X45.376 Y272.282 E53.06247
G1 X44.313 Y269.895 E53.35289
G1 X43.903 Y268.633 E53.50040
G1 X43.360 Y266.077 E53.79084
G1 X43.221 Y264.757 E53.93831
G1 X43.221 Y35.243 E79.44755
G1 X43.360 Y33.924 E79.59503
G1 X43.903 Y31.368 E79.88548
G1 X44.313 Y30.106 E80.03296
G1 X45.376 Y27.718 E80.32341
G1 X46.004 Y26.630 E80.46308
G10 ; retract
G92 E0
G1 X73.529 Y37.453 F4800.000
G11 ; unretract
G92 E0
G1 X126.471 Y37.453 E5.88426 F1200.000
G1 X126.471 Y35.338 E6.11926
G1 X126.975 Y32.968 E6.38862
G1 X127.961 Y30.754 E6.65797
G1 X129.385 Y28.793 E6.92733
G1 X131.186 Y27.172 E7.19668
G1 X133.285 Y25.960 E7.46604
G1 X135.590 Y25.211 E7.73539
G1 X138.000 Y24.958 E8.00475
G1 X140.410 Y25.211 E8.27410
G1 X142.715 Y25.960 E8.54346
G1 X144.814 Y27.172 E8.81281
G1 X146.615 Y28.793 E9.08217
G1 X148.039 Y30.754 E9.35152
G1 X149.025 Y32.968 E9.62088
G1 X149.529 Y35.338 E9.89023
G1 X149.529 Y37.762 E10.15959
G1 X149.025 Y40.132 E10.42895
G1 X148.039 Y42.346 E10.69830
G1 X146.615 Y44.307 E10.96766
G1 X144.814 Y45.928 E11.23701
G1 X142.715 Y47.140 E11.50637
G1 X140.410 Y47.889 E11.77572
G1 X137.097 Y48.237 E12.14596
G1 X137.097 Y251.763 E34.76675
G1 X140.410 Y252.111 E35.13698
G1 X142.715 Y252.860 E35.40636
G1 X144.814 Y254.071 E35.67568
G1 X146.615 Y255.693 E35.94506
G1 X148.039 Y257.654 E36.21441
G1 X149.025 Y259.868 E36.48374
G1 X149.529 Y262.238 E36.75308
G1 X149.529 Y264.662 E37.02252
G1 X149.025 Y267.033 E37.29186
G1 X148.039 Y269.246 E37.56119
G1 X146.615 Y271.207 E37.83054
G1 X144.814 Y272.829 E38.09992
G1 X142.715 Y274.040 E38.36924
G1 X140.410 Y274.789 E38.63862
G1 X138.000 Y275.042 E38.90797
G1 X135.590 Y274.789 E39.17732
G1 X133.285 Y274.040 E39.44670
G1 X131.186 Y272.829 E39.71602
G1 X129.385 Y271.207 E39.98539
G1 X127.961 Y269.246 E40.25475
G1 X126.975 Y267.033 E40.52407
G1 X126.471 Y264.662 E40.79341
G1 X126.471 Y262.547 E41.02846
G1 X73.529 Y262.547 E46.91272
G1 X73.529 Y264.662 E47.14777
G1 X73.025 Y267.033 E47.41711
G1 X72.039 Y269.246 E47.68644
G1 X70.615 Y271.207 E47.95579
G1 X68.814 Y272.829 E48.22517
G1 X66.715 Y274.040 E48.49449
G1 X64.410 Y274.789 E48.76387
G1 X62.000 Y275.042 E49.03322
G1 X59.590 Y274.789 E49.30257
G1 X57.285 Y274.040 E49.57194
G1 X55.186 Y272.829 E49.84127
G1 X53.385 Y271.207 E50.11065
G1 X51.961 Y269.246 E50.38000
G1 X50.975 Y267.033 E50.64932
G1 X50.471 Y264.662 E50.91867
G1 X50.471 Y262.238 E51.18811
G1 X50.975 Y259.868 E51.45745
G1 X51.961 Y257.654 E51.72678
G1 X53.385 Y255.693 E51.99613
G1 X55.186 Y254.071 E52.26550
G1 X57.285 Y252.860 E52.53483
G1 X59.590 Y252.111 E52.80421
G1 X62.903 Y251.763 E53.17443
G1 X62.903 Y48.237 E75.79523
G1 X59.590 Y47.889 E76.16546
G1 X57.285 Y47.140 E76.43482
G1 X55.186 Y45.928 E76.70417
G1 X53.385 Y44.307 E76.97353
G1 X51.961 Y42.346 E77.24288
G1 X50.975 Y40.132 E77.51224
G1 X50.471 Y37.762 E77.78159
G1 X50.471 Y35.338 E78.05095
G1 X50.975 Y32.968 E78.32030
G1 X51.961 Y30.754 E78.58966
G1 X53.385 Y28.793 E78.85901
G1 X55.186 Y27.172 E79.12837
G1 X57.285 Y25.960 E79.39772
G1 X59.590 Y25.211 E79.66708
G1 X62.000 Y24.958 E79.93643
G1 X64.410 Y25.211 E80.20579
G1 X66.715 Y25.960 E80.47514
G1 X68.814 Y27.172 E80.74450
G1 X70.615 Y28.793 E81.01385
G1 X72.039 Y30.754 E81.28321
G1 X73.025 Y32.968 E81.55256
G1 X73.529 Y35.338 E81.82192
G1 X73.529 Y37.393 E82.05025
G1 X73.876 Y37.105 F4800.000
G1 X126.124 Y37.105 E87.85731 F1200.000
G1 X126.124 Y35.302 E88.05776
G1 X126.643 Y32.860 E88.33523
G1 X127.658 Y30.579 E88.61270
G1 X129.126 Y28.560 E88.89017
G1 X130.981 Y26.889 E89.16764
G1 X133.143 Y25.641 E89.44511
G1 X135.517 Y24.869 E89.72258
G1 X138.000 Y24.608 E90.00005
G1 X140.483 Y24.869 E90.27752
G1 X142.857 Y25.641 E90.55499
G1 X145.019 Y26.889 E90.83246
G1 X146.874 Y28.560 E91.10993
G1 X148.342 Y30.579 E91.38740
G1 X149.357 Y32.860 E91.66487
G1 X149.876 Y35.302 E91.94234
G1 X149.876 Y37.798 E92.21981
G1 X149.357 Y40.240 E92.49728
G1 X148.342 Y42.521 E92.77475
G1 X146.874 Y44.540 E93.05222
G1 X145.019 Y46.211 E93.32969
G1 X142.857 Y47.459 E93.60716
G1 X140.483 Y48.231 E93.88463
G1 X137.445 Y48.550 E94.22416
G1 X137.445 Y251.450 E116.77544
G1 X140.483 Y251.769 E117.11497
G1 X142.857 Y252.541 E117.39246
G1 X145.019 Y253.789 E117.66990
G1 X146.874 Y255.460 E117.94739
G1 X148.342 Y257.479 E118.22485
G1 X149.357 Y259.760 E118.50230
G1 X149.876 Y262.201 E118.77975
G1 X149.876 Y264.699 E119.05731
G1 X149.357 Y267.140 E119.33477
G1 X148.342 Y269.421 E119.61221
G1 X146.874 Y271.440 E119.88967
G1 X145.019 Y273.111 E120.16717
G1 X142.857 Y274.359 E120.44460
G1 X140.483 Y275.131 E120.72210
G1 X138.000 Y275.392 E120.99956
G1 X135.517 Y275.131 E121.27703
G1 X133.143 Y274.359 E121.55452
G1 X130.981 Y273.111 E121.83196
G1 X129.126 Y271.440 E122.10945
G1 X127.658 Y269.421 E122.38691
G1 X126.643 Y267.140 E122.66435
G1 X126.124 Y264.699 E122.94181
G1 X126.124 Y262.895 E123.14231
G1 X73.876 Y262.895 E128.94937
G1 X73.876 Y264.699 E129.14987
G1 X73.357 Y267.140 E129.42733
G1 X72.342 Y269.421 E129.70477
G1 X70.874 Y271.440 E129.98223
G1 X69.019 Y273.111 E130.25973
G1 X66.857 Y274.359 E130.53717
G1 X64.483 Y275.131 E130.81465
G1 X62.000 Y275.392 E131.09212
G1 X59.517 Y275.131 E131.36959
G1 X57.143 Y274.359 E131.64708
G1 X54.981 Y273.111 E131.92451
G1 X53.126 Y271.440 E132.20201
G1 X51.658 Y269.421 E132.47948
G1 X50.643 Y267.140 E132.75691
G1 X50.124 Y264.699 E133.03437
G1 X50.124 Y262.201 E133.31193
G1 X50.643 Y259.760 E133.58939
G1 X51.658 Y257.479 E133.86683
G1 X53.126 Y255.460 E134.14429
G1 X54.981 Y253.789 E134.42179
G1 X57.143 Y252.541 E134.69922
G1 X59.517 Y251.769 E134.97671
G1 X62.555 Y251.450 E135.31624
G1 X62.555 Y48.550 E157.86752
G1 X59.517 Y48.231 E158.20705
G1 X57.143 Y47.459 E158.48452
G1 X54.981 Y46.211 E158.76199
G1 X53.126 Y44.540 E159.03946
G1 X51.658 Y42.521 E159.31693
G1 X50.643 Y40.240 E159.59440
G1 X50.124 Y37.798 E159.87187
G1 X50.124 Y35.302 E160.14934
G1 X50.643 Y32.860 E160.42681
G1 X51.658 Y30.579 E160.70428
G1 X53.126 Y28.560 E160.98175
G1 X54.981 Y26.889 E161.25922
G1 X57.143 Y25.641 E161.53669
G1 X59.517 Y24.869 E161.81416
G1 X62.000 Y24.608 E162.09163
G1 X64.483 Y24.869 E162.36910
G1 X66.857 Y25.641 E162.64657
G1 X69.019 Y26.889 E162.92404
G1 X70.874 Y28.560 E163.20151
G1 X72.342 Y30.579 E163.47898
G1 X73.357 Y32.860 E163.75645
G1 X73.876 Y35.302 E164.03392
G1 X73.876 Y37.045 E164.22771
G1 X74.223 Y36.758 F4800.000
G1 X125.776 Y36.758 E169.95755 F1200.000
G1 X125.776 Y35.265 E170.12346
G1 X126.311 Y32.752 E170.40905
G1 X127.356 Y30.405 E170.69463
G1 X128.866 Y28.326 E170.98022
G1 X130.776 Y26.607 E171.26580
G1 X133.001 Y25.322 E171.55139
G1 X135.445 Y24.528 E171.83697
G1 X138.000 Y24.259 E172.12256
G1 X140.555 Y24.528 E172.40814
G1 X142.999 Y25.322 E172.69373
G1 X145.224 Y26.607 E172.97931
G1 X147.134 Y28.326 E173.26489
G1 X148.644 Y30.405 E173.55048
G1 X149.689 Y32.752 E173.83606
G1 X150.224 Y35.265 E174.12165
G1 X150.224 Y37.835 E174.40723
G1 X149.689 Y40.348 E174.69282
G1 X148.644 Y42.695 E174.97840
G1 X147.134 Y44.774 E175.26399
G1 X145.224 Y46.494 E175.54957
G1 X142.999 Y47.778 E175.83516
G1 X140.555 Y48.572 E176.12074
G1 X137.792 Y48.863 E176.42957
G1 X137.792 Y251.137 E198.91133
G1 X140.555 Y251.428 E199.22016
G1 X142.999 Y252.222 E199.50576
G1 X145.224 Y253.506 E199.79132
G1 X147.134 Y255.226 E200.07693
G1 X148.644 Y257.305 E200.36250
G1 X149.689 Y259.652 E200.64806
G1 X150.224 Y262.165 E200.93363
G1 X150.224 Y264.735 E201.21930
G1 X149.689 Y267.248 E201.50488
G1 X148.644 Y269.595 E201.79043
G1 X147.134 Y271.674 E202.07601
G1 X145.224 Y273.394 E202.36162
G1 X142.999 Y274.678 E202.64717
G1 X140.555 Y275.472 E202.93277
G1 X138.000 Y275.741 E203.21836
G1 X135.445 Y275.472 E203.50394
G1 X133.001 Y274.678 E203.78954
G1 X130.776 Y273.394 E204.07509
G1 X128.866 Y271.674 E204.36071
G1 X127.356 Y269.595 E204.64628
G1 X126.311 Y267.248 E204.93184
G1 X125.777 Y264.735 E205.21741
G1 X125.777 Y263.242 E205.38337
G1 X74.224 Y263.242 E211.11321
G1 X74.224 Y264.735 E211.27917
G1 X73.689 Y267.248 E211.56474
G1 X72.644 Y269.595 E211.85030
G1 X71.134 Y271.674 E212.13587
G1 X69.224 Y273.394 E212.42149
G1 X66.999 Y274.678 E212.70704
G1 X64.555 Y275.472 E212.99264
G1 X62.000 Y275.741 E213.27822
G1 X59.445 Y275.472 E213.56381
G1 X57.001 Y274.678 E213.84941
G1 X54.776 Y273.394 E214.13496
G1 X52.866 Y271.674 E214.42057
G1 X51.356 Y269.595 E214.70615
G1 X50.311 Y267.248 E214.99171
G1 X49.777 Y264.735 E215.27728
G1 X49.776 Y262.165 E215.56295
G1 X50.311 Y259.652 E215.84852
G1 X51.356 Y257.305 E216.13408
G1 X52.866 Y255.226 E216.41965
G1 X54.776 Y253.506 E216.70527
G1 X57.001 Y252.222 E216.99082
G1 X59.445 Y251.428 E217.27642
G1 X62.208 Y251.137 E217.58525
G1 X62.208 Y48.863 E240.06701
G1 X59.445 Y48.572 E240.37584
G1 X57.001 Y47.778 E240.66142
G1 X54.776 Y46.494 E240.94700
G1 X52.866 Y44.774 E241.23259
G1 X51.356 Y42.695 E241.51818
G1 X50.311 Y40.348 E241.80376
G1 X49.776 Y37.835 E242.08935
G1 X49.776 Y35.265 E242.37493
G1 X50.311 Y32.752 E242.66052
G1 X51.356 Y30.405 E242.94610
G1 X52.866 Y28.326 E243.23169
G1 X54.776 Y26.606 E243.51727
G1 X57.001 Y25.322 E243.80286
G1 X59.445 Y24.528 E244.08844
G1 X62.000 Y24.259 E244.37402
G1 X64.555 Y24.528 E244.65961
G1 X66.999 Y25.322 E244.94519
G1 X69.224 Y26.606 E245.23078
G1 X71.134 Y28.326 E245.51636
G1 X72.644 Y30.405 E245.80195
G1 X73.689 Y32.752 E246.08753
G1 X74.223 Y35.265 E246.37312
G1 X74.223 Y36.698 E246.53236
G1 X74.223 Y37.158 F4800.000
G10 ; retract
G92 E0
G1 X72.429 Y32.213 F4800.000
G11 ; unretract
G92 E0
G1 X66.270 Y26.055 E0.96887 F1200.000
G1 X65.542 Y25.818 E1.05405
G1 X72.823 Y33.100 E2.19957
G1 X72.964 Y33.732 E2.27164
G1 X64.814 Y25.582 E3.55387
G1 X64.133 Y25.393 E3.63247
G1 X73.097 Y34.356 E5.04268
G1 X73.230 Y34.981 E5.11369
G1 X63.584 Y25.335 E6.63121
G1 X63.034 Y25.277 E6.69266
G1 X73.327 Y35.570 E8.31200
G1 X73.327 Y36.062 E8.36669
G1 X62.485 Y25.219 E10.07246
G1 X61.936 Y25.162 E10.13392
G1 X73.327 Y36.553 E11.92612
G1 X73.327 Y37.045 E11.98081
G1 X61.489 Y25.207 E13.84328
G1 X61.044 Y25.253 E13.89304
G1 X136.896 Y101.105 E25.82634
G1 X136.896 Y100.614 E25.88104
G1 X73.936 Y37.654 E35.78606
G1 X74.428 Y37.654 E35.84075
G1 X136.896 Y100.122 E45.66842
G1 X136.896 Y99.630 E45.72312
G1 X74.920 Y37.654 E55.47344
G1 X75.411 Y37.654 E55.52814
G1 X136.896 Y99.139 E65.20112
G1 X136.896 Y98.647 E65.25581
G1 X75.903 Y37.654 E74.85145
G1 X76.395 Y37.654 E74.90614
G1 X136.896 Y98.155 E84.42443
G1 X136.896 Y97.664 E84.47912
G1 X76.886 Y37.654 E93.92006
G1 X77.378 Y37.654 E93.97476
G1 X136.896 Y97.172 E103.33835
G1 X136.896 Y96.680 E103.39305
G1 X77.870 Y37.654 E112.67930
G1 X78.361 Y37.654 E112.73399
G1 X136.896 Y96.189 E121.94289
G1 X136.896 Y95.697 E121.99759
G1 X78.853 Y37.654 E131.12914
G1 X79.344 Y37.654 E131.18384
G1 X136.896 Y95.206 E140.23805
G1 X136.896 Y94.714 E140.29274
G1 X79.836 Y37.654 E149.26960
G1 X80.328 Y37.654 E149.32430
G1 X136.896 Y94.222 E158.22382
G1 X136.896 Y93.731 E158.27851
G1 X80.819 Y37.654 E167.10068
G1 X81.311 Y37.654 E167.15537
G1 X136.896 Y93.239 E175.90020
G1 X136.896 Y92.747 E175.95489
G1 X81.803 Y37.654 E184.62237
G1 X82.294 Y37.654 E184.67706
G1 X136.896 Y92.256 E193.26720
G1 X136.896 Y91.764 E193.32189
G1 X82.786 Y37.654 E201.83468
G1 X83.278 Y37.654 E201.88937
G1 X136.896 Y91.272 E210.32481
G1 X136.896 Y90.781 E210.37950
G1 X83.769 Y37.654 E218.73759
G1 X84.261 Y37.654 E218.79229
G1 X136.896 Y90.289 E227.07304
G1 X136.896 Y89.798 E227.12773
G1 X84.752 Y37.654 E235.33113
G1 X85.244 Y37.654 E235.38582
G1 X136.896 Y89.306 E243.51188
G1 X136.896 Y88.814 E243.56657
G1 X85.736 Y37.654 E251.61528
G1 X86.227 Y37.654 E251.66997
G1 X136.896 Y88.323 E259.64133
G1 X136.896 Y87.831 E259.69602
G1 X86.719 Y37.654 E267.59004
G1 X87.211 Y37.654 E267.64473
G1 X136.896 Y87.339 E275.46140
G1 X136.896 Y86.848 E275.51610
G1 X87.702 Y37.654 E283.25542
G1 X88.194 Y37.654 E283.31011
G1 X136.896 Y86.356 E290.97209
G1 X136.896 Y85.864 E291.02678
G1 X88.686 Y37.654 E298.61141
G1 X89.177 Y37.654 E298.66610
G1 X136.896 Y85.373 E306.17339
G1 X136.896 Y84.881 E306.22808
G1 X89.669 Y37.654 E313.65802
G1 X90.160 Y37.654 E313.71271
G1 X136.896 Y84.390 E321.06530
G1 X136.896 Y83.898 E321.12000
G1 X90.652 Y37.654 E328.39524
G1 X91.144 Y37.654 E328.44993
G1 X136.896 Y83.406 E335.64783
G1 X136.896 Y82.915 E335.70252
G1 X91.635 Y37.654 E342.82308
G1 X92.127 Y37.654 E342.87777
G1 X136.896 Y82.423 E349.92098
G1 X136.896 Y81.931 E349.97567
G1 X92.619 Y37.654 E356.94153
G1 X93.110 Y37.654 E356.99622
G1 X136.896 Y81.440 E363.88474
G1 X136.896 Y80.948 E363.93943
G1 X93.602 Y37.654 E370.75060
G1 X94.094 Y37.654 E370.80529
G1 X136.896 Y80.456 E377.53911
G1 X136.896 Y79.965 E377.59380
G1 X94.585 Y37.654 E384.25028
G1 X95.077 Y37.654 E384.30497
G1 X136.896 Y79.473 E390.88410
G1 X136.896 Y78.982 E390.93879
G1 X95.568 Y37.654 E397.44057
G1 X96.060 Y37.654 E397.49526
G1 X136.896 Y78.490 E403.91970
G1 X136.896 Y77.998 E403.97439
G1 X96.552 Y37.654 E410.32148
G1 X97.043 Y37.654 E410.37617
G1 X136.896 Y77.507 E416.64592
G1 X136.896 Y77.015 E416.70061
G1 X97.535 Y37.654 E422.89300
G1 X98.027 Y37.654 E422.94770
G1 X136.896 Y76.523 E429.06275
G1 X136.896 Y76.032 E429.11744
G1 X98.518 Y37.654 E435.15514
G1 X99.010 Y37.654 E435.20984
G1 X136.896 Y75.540 E441.17019
G1 X136.896 Y75.048 E441.22489
G1 X99.502 Y37.654 E447.10790
G1 X99.993 Y37.654 E447.16259
G1 X136.896 Y74.557 E452.96825
G1 X136.896 Y74.065 E453.02295
G1 X100.485 Y37.654 E458.75126
G1 X100.976 Y37.654 E458.80596
G1 X136.896 Y73.574 E464.45693
G1 X136.896 Y73.082 E464.51162
G1 X101.468 Y37.654 E470.08525
G1 X101.960 Y37.654 E470.13994
G1 X136.896 Y72.590 E475.63622
G1 X136.896 Y72.099 E475.69091
G1 X102.451 Y37.654 E481.10985
G1 X102.943 Y37.654 E481.16454
G1 X136.896 Y71.607 E486.50612
