; generated by Slic3r 1.2.9 on 2018-01-02 at 18:59:16

; external perimeters extrusion width = 0.40mm
; perimeters extrusion width = 0.46mm
; infill extrusion width = 0.46mm
; solid infill extrusion width = 0.46mm
; top infill extrusion width = 0.46mm

M107
M190 S60 ; set bed temperature
M117 Starting...
M200 D2.8500 ; set filament diameter and switch to volumetric extrusion mm in power of 3
M109 S160; set hot-end temperature to melt tip
G28 ; home all axes
M109 S190
M109 S220; set hot-end temperature to print
M208 S-0.05 F180 ; extrusion recover length and speed
M207 S0.5 F600 ; retraction

G21 ; set units to millimeters
G90 ; use absolute coordinates
M82 ; use absolute distances for extrusion
G92 E0
G10 ; retract
G92 E0
G1 Z0.320 F4800.000
G1 X64.918 Y119.541 F4800.000
G11 ; unretract
G92 E0
G1 X66.828 Y118.691 E0.23236 F1200.000
G1 X68.090 Y118.281 E0.37984
G1 X70.135 Y117.846 E0.61219
G1 X71.455 Y117.707 E0.75968
G1 X128.545 Y117.707 E7.10500
G1 X129.865 Y117.846 E7.25248
G1 X131.910 Y118.281 E7.48484 F1200.000
G1 X133.172 Y118.691 E7.63233
G1 X135.082 Y119.541 E7.86468
G1 X136.231 Y120.205 E8.01216
G1 X137.922 Y121.433 E8.24451
G1 X138.908 Y122.321 E8.39199
G1 X140.307 Y123.875 E8.62435
G1 X141.087 Y124.948 E8.77183
G1 X142.132 Y126.759 E9.00419
G1 X142.672 Y127.971 E9.15168
G1 X143.318 Y129.960 E9.38404
G1 X143.594 Y131.257 E9.53153
G1 X143.813 Y133.337 E9.76389
G1 X143.847 Y134.000 E9.83772
G1 X143.847 Y166.000 E13.39435
G1 X143.813 Y166.663 E13.46819
G1 X143.594 Y168.743 E13.70054
G1 X143.318 Y170.040 E13.84802
G1 X142.672 Y172.029 E14.08038
G1 X142.132 Y173.241 E14.22788
G1 X141.087 Y175.052 E14.46024
G1 X140.307 Y176.125 E14.60775
G1 X138.908 Y177.679 E14.84010
G1 X137.922 Y178.566 E14.98752
G1 X136.231 Y179.795 E15.21989
G1 X135.082 Y180.459 E15.36740
G1 X133.172 Y181.309 E15.59975
G1 X131.910 Y181.719 E15.74725
G1 X129.865 Y182.154 E15.97961
G1 X128.545 Y182.293 E16.12707
G1 X71.455 Y182.293 E22.47239
G1 X70.135 Y182.154 E22.61986
G1 X68.090 Y181.719 E22.85222
G1 X66.828 Y181.309 E22.99971
G1 X64.918 Y180.459 E23.23207
G1 X63.769 Y179.795 E23.37958
G1 X62.078 Y178.566 E23.61194
G1 X61.092 Y177.679 E23.75938
G1 X59.693 Y176.125 E23.99173
G1 X58.913 Y175.052 E24.13923
G1 X57.868 Y173.241 E24.37159
G1 X57.328 Y172.029 E24.51908
G1 X57.026 Y171.101 E24.62751
G1 X56.682 Y170.041 E24.75144
G1 X56.406 Y168.743 E24.89892
G1 X56.187 Y166.663 E25.13127
G1 X56.153 Y166.000 E25.20512
G1 X56.153 Y134.000 E28.76175
G1 X56.187 Y133.337 E28.83559
G1 X56.406 Y131.257 E29.06795
G1 X56.682 Y129.959 E29.21543
G1 X57.328 Y127.971 E29.44779
G1 X57.868 Y126.759 E29.59527
G1 X58.913 Y124.948 E29.82763
G1 X59.693 Y123.875 E29.97511
G1 X61.092 Y122.321 E30.20746
G1 X62.078 Y121.433 E30.35495
G1 X63.769 Y120.205 E30.58731
G1 X64.866 Y119.571 E30.72812
G10 ; retract
G92 E0
G1 X118.313 Y165.097 F4800.000
G11 ; unretract
G92 E0
G1 X81.687 Y165.097 E4.07073 F1200.000
G1 X81.394 Y167.890 E4.38288
G1 X80.806 Y169.698 E4.59415
G1 X79.856 Y171.344 E4.80542
G1 X78.584 Y172.757 E5.01668
G1 X77.046 Y173.874 E5.22795
G1 X75.310 Y174.647 E5.43921
G1 X73.450 Y175.043 E5.65048
G1 X71.550 Y175.043 E5.86175
G1 X69.690 Y174.647 E6.07301
G1 X67.954 Y173.874 E6.28428
G1 X66.416 Y172.757 E6.49555
G1 X65.144 Y171.344 E6.70681
G1 X64.194 Y169.698 E6.91808
G1 X63.606 Y167.890 E7.12935
G1 X63.408 Y166.000 E7.34061
G1 X63.606 Y164.110 E7.55188
G1 X64.194 Y162.302 E7.76315
G1 X65.144 Y160.656 E7.97442
G1 X66.416 Y159.243 E8.18568
G1 X67.954 Y158.126 E8.39695
G1 X69.690 Y157.353 E8.60821
G1 X71.550 Y156.957 E8.81948
G1 X73.403 Y156.957 E9.02544
G1 X73.403 Y143.043 E10.57201
G1 X71.550 Y143.043 E10.77796
G1 X69.690 Y142.647 E10.98923
G1 X67.954 Y141.874 E11.20050
G1 X66.416 Y140.757 E11.41177
G1 X65.144 Y139.344 E11.62303
G1 X64.194 Y137.698 E11.83430
G1 X63.606 Y135.890 E12.04556
G1 X63.408 Y134.000 E12.25683
G1 X63.606 Y132.110 E12.46810
G1 X64.194 Y130.302 E12.67936
G1 X65.144 Y128.656 E12.89063
G1 X66.416 Y127.243 E13.10190
G1 X67.954 Y126.126 E13.31316
G1 X69.690 Y125.353 E13.52443
G1 X71.550 Y124.957 E13.73570
G1 X73.450 Y124.957 E13.94696
G1 X75.310 Y125.353 E14.15823
G1 X77.046 Y126.126 E14.36950
G1 X78.584 Y127.243 E14.58076
G1 X79.856 Y128.656 E14.79203
G1 X80.806 Y130.302 E15.00330
G1 X81.394 Y132.110 E15.21456
G1 X81.687 Y134.903 E15.52671
G1 X118.313 Y134.903 E19.59744
G1 X118.606 Y132.110 E19.90959
G1 X119.194 Y130.302 E20.12085
G1 X120.144 Y128.656 E20.33212
G1 X121.416 Y127.243 E20.54339
G1 X122.954 Y126.126 E20.75466
G1 X124.690 Y125.353 E20.96592
G1 X126.550 Y124.957 E21.17719
G1 X128.450 Y124.957 E21.38846
G1 X130.310 Y125.353 E21.59972
G1 X132.046 Y126.126 E21.81099
G1 X133.584 Y127.243 E22.02225
G1 X134.856 Y128.656 E22.23352
G1 X135.806 Y130.302 E22.44479
G1 X136.394 Y132.110 E22.65606
G1 X136.592 Y134.000 E22.86732
G1 X136.394 Y135.890 E23.07859
G1 X135.806 Y137.698 E23.28986
G1 X134.856 Y139.344 E23.50112
G1 X133.584 Y140.757 E23.71239
G1 X132.046 Y141.874 E23.92366
G1 X130.310 Y142.647 E24.13492
G1 X128.450 Y143.043 E24.34619
G1 X126.597 Y143.043 E24.55215
G1 X126.597 Y156.957 E26.09872
G1 X128.450 Y156.957 E26.30468
G1 X130.310 Y157.353 E26.51594
G1 X132.046 Y158.126 E26.72720
G1 X133.584 Y159.243 E26.93848
G1 X134.856 Y160.656 E27.14974
G1 X135.806 Y162.302 E27.36101
G1 X136.394 Y164.110 E27.57228
G1 X136.592 Y166.000 E27.78354
G1 X136.394 Y167.890 E27.99481
G1 X135.806 Y169.698 E28.20608
G1 X134.856 Y171.344 E28.41735
G1 X133.584 Y172.757 E28.62861
G1 X132.046 Y173.874 E28.83988
G1 X130.310 Y174.647 E29.05114
G1 X128.450 Y175.043 E29.26241
G1 X126.550 Y175.043 E29.47368
G1 X124.690 Y174.647 E29.68495
G1 X122.954 Y173.874 E29.89621
G1 X121.416 Y172.757 E30.10748
G1 X120.144 Y171.344 E30.31875
G1 X119.194 Y169.698 E30.53001
G1 X118.606 Y167.890 E30.74128
G1 X118.319 Y165.157 E31.04676
G1 X118.000 Y165.445 F4800.000
G1 X82.000 Y165.445 E35.04798 F1200.000
G1 X81.735 Y167.963 E35.32942
G1 X81.125 Y169.840 E35.54880
G1 X80.138 Y171.550 E35.76819
G1 X78.818 Y173.016 E35.98756
G1 X77.221 Y174.177 E36.20695
G1 X75.418 Y174.980 E36.42633
G1 X73.487 Y175.390 E36.64571
G1 X71.513 Y175.390 E36.86509
G1 X69.582 Y174.980 E37.08447
G1 X67.779 Y174.177 E37.30385
G1 X66.182 Y173.016 E37.52324
G1 X64.862 Y171.550 E37.74261
G1 X63.875 Y169.840 E37.96199
G1 X63.265 Y167.963 E38.18138
G1 X63.058 Y166.000 E38.40076
G1 X63.265 Y164.037 E38.62014
G1 X63.875 Y162.160 E38.83953
G1 X64.862 Y160.450 E39.05891
G1 X66.182 Y158.984 E39.27828
G1 X67.779 Y157.823 E39.49767
G1 X69.582 Y157.020 E39.71705
G1 X71.513 Y156.610 E39.93643
G1 X73.055 Y156.610 E40.10784
G1 X73.055 Y143.390 E41.57720
G1 X71.513 Y143.390 E41.74862
G1 X69.582 Y142.980 E41.96800
G1 X67.779 Y142.177 E42.18738
G1 X66.182 Y141.016 E42.40676
G1 X64.862 Y139.550 E42.62614
G1 X63.875 Y137.840 E42.84552
G1 X63.265 Y135.963 E43.06490
G1 X63.058 Y134.000 E43.28429
G1 X63.265 Y132.037 E43.50367
G1 X63.875 Y130.160 E43.72305
G1 X64.862 Y128.450 E43.94243
G1 X66.182 Y126.984 E44.16181
G1 X67.779 Y125.823 E44.38119
G1 X69.582 Y125.021 E44.60057
G1 X71.513 Y124.610 E44.81996
G1 X73.487 Y124.610 E45.03934
G1 X75.418 Y125.021 E45.25872
G1 X77.221 Y125.823 E45.47810
G1 X78.818 Y126.984 E45.69748
G1 X80.138 Y128.450 E45.91686
G1 X81.125 Y130.160 E46.13624
G1 X81.735 Y132.037 E46.35563
G1 X82.000 Y134.555 E46.63707
G1 X118.000 Y134.555 E50.63829
G1 X118.265 Y132.037 E50.91973
G1 X118.875 Y130.160 E51.13911
G1 X119.862 Y128.450 E51.35849
G1 X121.182 Y126.984 E51.57787
G1 X122.779 Y125.823 E51.79726
G1 X124.582 Y125.021 E52.01663
G1 X126.513 Y124.610 E52.23602
G1 X128.487 Y124.610 E52.45540
G1 X130.418 Y125.021 E52.67478
G1 X132.221 Y125.823 E52.89416
G1 X133.818 Y126.984 E53.11354
G1 X135.138 Y128.450 E53.33293
G1 X136.125 Y130.160 E53.55231
G1 X136.735 Y132.037 E53.77169
G1 X136.942 Y134.000 E53.99107
G1 X136.735 Y135.963 E54.21045
G1 X136.125 Y137.840 E54.42983
G1 X135.138 Y139.550 E54.64922
G1 X133.818 Y141.016 E54.86860
G1 X132.221 Y142.177 E55.08798
G1 X130.418 Y142.980 E55.30736
G1 X128.487 Y143.390 E55.52674
G1 X126.945 Y143.390 E55.69816
G1 X126.945 Y156.610 E57.16752
G1 X128.487 Y156.610 E57.33893
G1 X130.418 Y157.020 E57.55831
G1 X132.221 Y157.823 E57.77769
G1 X133.818 Y158.984 E57.99708
G1 X135.138 Y160.450 E58.21645
G1 X136.125 Y162.160 E58.43584
G1 X136.735 Y164.037 E58.65522
G1 X136.942 Y166.000 E58.87460
G1 X136.735 Y167.963 E59.09398
G1 X136.125 Y169.840 E59.31337
G1 X135.138 Y171.550 E59.53275
G1 X133.818 Y173.016 E59.75213
G1 X132.221 Y174.177 E59.97151
G1 X130.418 Y174.980 E60.19089
G1 X128.487 Y175.390 E60.41027
G1 X126.513 Y175.390 E60.62966
G1 X124.582 Y174.980 E60.84904
G1 X122.779 Y174.177 E61.06841
G1 X121.182 Y173.016 E61.28780
G1 X119.862 Y171.550 E61.50718
G1 X118.875 Y169.840 E61.72656
G1 X118.265 Y167.963 E61.94595
G1 X118.006 Y165.504 E62.22072
G1 X117.687 Y165.792 F4800.000
G1 X82.313 Y165.792 E66.15242 F1200.000
G1 X82.077 Y168.036 E66.40316
G1 X81.444 Y169.982 E66.63066
G1 X80.421 Y171.755 E66.85816
G1 X79.051 Y173.276 E67.08565
G1 X77.395 Y174.479 E67.31315
G1 X75.526 Y175.312 E67.54064
G1 X73.523 Y175.737 E67.76814
G1 X71.477 Y175.737 E67.99564
G1 X69.474 Y175.312 E68.22313
G1 X67.605 Y174.479 E68.45063
G1 X65.949 Y173.276 E68.67813
G1 X64.579 Y171.755 E68.90562
G1 X63.556 Y169.982 E69.13311
G1 X62.923 Y168.036 E69.36062
G1 X62.709 Y166.000 E69.58811
G1 X62.923 Y163.964 E69.81561
G1 X63.556 Y162.018 E70.04311
G1 X64.579 Y160.245 E70.27060
G1 X65.949 Y158.724 E70.49809
G1 X67.605 Y157.521 E70.72560
G1 X69.474 Y156.688 E70.95309
G1 X71.477 Y156.263 E71.18059
G1 X72.708 Y156.263 E71.31745
G1 X72.708 Y143.737 E72.70960
G1 X71.477 Y143.737 E72.84647
G1 X69.474 Y143.312 E73.07397
G1 X67.605 Y142.479 E73.30146
G1 X65.949 Y141.276 E73.52896
G1 X64.579 Y139.755 E73.75646
G1 X63.556 Y137.982 E73.98395
G1 X62.923 Y136.036 E74.21145
G1 X62.709 Y134.000 E74.43894
G1 X62.923 Y131.964 E74.66644
G1 X63.556 Y130.018 E74.89394
G1 X64.579 Y128.245 E75.12143
G1 X65.949 Y126.724 E75.34893
G1 X67.605 Y125.521 E75.57642
G1 X69.474 Y124.688 E75.80392
G1 X71.477 Y124.263 E76.03142
G1 X73.523 Y124.263 E76.25891
G1 X75.526 Y124.688 E76.48641
G1 X77.395 Y125.521 E76.71391
G1 X79.051 Y126.724 E76.94140
G1 X80.421 Y128.245 E77.16890
G1 X81.444 Y130.018 E77.39639
G1 X82.077 Y131.964 E77.62389
G1 X82.313 Y134.208 E77.87463
G1 X117.687 Y134.208 E81.80633
G1 X117.923 Y131.964 E82.05707
G1 X118.556 Y130.018 E82.28457
G1 X119.579 Y128.245 E82.51206
G1 X120.949 Y126.724 E82.73956
G1 X122.605 Y125.521 E82.96706
G1 X124.474 Y124.688 E83.19455
G1 X126.477 Y124.263 E83.42205
G1 X128.523 Y124.263 E83.64955
G1 X130.526 Y124.688 E83.87705
G1 X132.395 Y125.521 E84.10454
G1 X134.051 Y126.724 E84.33204
G1 X135.421 Y128.245 E84.55953
G1 X136.444 Y130.018 E84.78703
G1 X137.077 Y131.964 E85.01453
G1 X137.291 Y134.000 E85.24202
G1 X137.077 Y136.036 E85.46952
G1 X136.444 Y137.982 E85.69701
G1 X135.421 Y139.755 E85.92451
G1 X134.051 Y141.276 E86.15201
G1 X132.395 Y142.479 E86.37951
G1 X130.526 Y143.312 E86.60700
G1 X128.523 Y143.737 E86.83450
G1 X127.292 Y143.737 E86.97136
G1 X127.292 Y156.263 E88.36352
G1 X128.523 Y156.263 E88.50039
G1 X130.526 Y156.688 E88.72788
G1 X132.395 Y157.521 E88.95537
G1 X134.051 Y158.724 E89.18287
G1 X135.421 Y160.245 E89.41037
G1 X136.444 Y162.018 E89.63786
G1 X137.077 Y163.964 E89.86537
G1 X137.291 Y166.000 E90.09286
G1 X137.077 Y168.036 E90.32035
G1 X136.444 Y169.982 E90.54786
G1 X135.421 Y171.755 E90.77535
G1 X134.051 Y173.276 E91.00284
G1 X132.395 Y174.479 E91.23035
G1 X130.526 Y175.312 E91.45784
G1 X128.523 Y175.737 E91.68533
G1 X126.477 Y175.737 E91.91283
G1 X124.474 Y175.312 E92.14033
G1 X122.605 Y174.479 E92.36782
G1 X120.949 Y173.276 E92.59533
G1 X119.579 Y171.755 E92.82282
G1 X118.556 Y169.982 E93.05031
G1 X117.923 Y168.036 E93.27781
G1 X117.694 Y165.852 E93.52189
G1 X117.673 Y165.392 F4800.000
G1 X118.550 Y165.347 F4800.000
G1 X128.044 Y174.841 E95.01871 F1200.000
G1 X127.551 Y174.841 E95.07364
G1 X118.608 Y165.898 E96.48367
G1 X118.666 Y166.448 E96.54538
G1 X127.058 Y174.841 E97.86860
G1 X126.542 Y174.818 E97.92620
G1 X118.723 Y166.999 E99.15892
G1 X118.781 Y167.550 E99.22064
G1 X125.916 Y174.685 E100.34559
G1 X125.291 Y174.552 E100.41691
G1 X118.950 Y168.211 E101.41659
G1 X119.187 Y168.941 E101.50214
G1 X124.588 Y174.341 E102.35359
G1 X123.699 Y173.946 F4800.000
G1 X119.519 Y169.766 E103.01268 F1200.000
G1 X120.192 Y170.931 F4800.000
G1 X122.447 Y173.186 E103.36811 F1200.000
G10 ; retract
G92 E0
G1 X127.500 Y166.000 F4800.000
G1 X126.500 Y165.100 F4800.000
G1 X125.604 Y164.243 F4800.000
G1 X118.400 Y165.000 F4800.000
G1 X111.200 Y164.896 F4800.000
G11 ; unretract
G92 E0
G1 X81.409 Y135.104 E4.69709 F1200.000
G1 X81.450 Y134.653 F4800.000
G1 X71.956 Y125.159 E6.19394 F1200.000
G1 X72.449 Y125.159 E6.24887
G1 X81.392 Y134.102 E7.65891
G1 X81.334 Y133.552 E7.72063
G1 X72.942 Y125.159 E9.04387
G1 X73.458 Y125.182 E9.10146
G1 X81.277 Y133.001 E10.33420
G1 X81.219 Y132.451 E10.39592
G1 X74.084 Y125.315 E11.52089
G1 X74.709 Y125.448 E11.59221
G1 X81.050 Y131.789 E12.59190
G1 X80.813 Y131.059 E12.67746
G1 X75.412 Y125.659 E13.52892
G1 X76.300 Y126.054 F4800.000
G1 X80.481 Y130.234 E14.18801 F1200.000
G1 X79.808 Y129.069 F4800.000
G1 X77.553 Y126.814 E14.54349 F1200.000
G10 ; retract
G92 E0
G1 X73.379 Y142.841 F4800.000
G11 ; unretract
G92 E0
G1 X63.692 Y133.154 E1.52736 F1200.000
G1 X63.645 Y133.600 E1.57734
G1 X72.887 Y142.841 E3.03440
G1 X72.394 Y142.841 E3.08933
G1 X63.626 Y134.073 E4.47169
G1 X63.684 Y134.624 E4.53341
G1 X71.901 Y142.841 E5.82896
G1 X71.343 Y142.775 E5.89166
G1 X63.742 Y135.174 E7.09003
G1 X63.800 Y135.725 E7.15175
G1 X70.717 Y142.642 E8.24235
G1 X70.091 Y142.509 E8.31366
G1 X64.026 Y136.444 E9.26998
G1 X64.263 Y137.174 E9.35553
G1 X69.304 Y142.215 E10.15041
G1 X68.416 Y141.820 F4800.000
G1 X64.734 Y138.137 E10.73102 F1200.000
G10 ; retract
G92 E0
G1 X66.039 Y139.935 F4800.000
G11 ; unretract
G92 E0
G1 X66.872 Y140.768 E0.13133 F1200.000
G10 ; retract
G92 E0
G1 X73.604 Y143.066 F4800.000
G11 ; unretract
G92 E0
G1 X95.434 Y164.896 E3.44180 F1200.000
G1 X95.927 Y164.896 E3.49673
G1 X63.739 Y132.708 E8.57164
G1 X63.786 Y132.262 E8.62162
G1 X96.419 Y164.896 E13.76683
G1 X96.912 Y164.896 E13.82176
G1 X63.878 Y131.862 E19.03001
G1 X63.999 Y131.490 E19.07360
G1 X97.405 Y164.896 E24.34048
G1 X97.898 Y164.896 E24.39541
G1 X64.120 Y131.118 E29.72092
G1 X64.241 Y130.747 E29.76451
G1 X98.390 Y164.896 E35.14865
G1 X98.883 Y164.896 E35.20358
G1 X64.362 Y130.375 E40.64635
G1 X64.537 Y130.057 E40.68680
G1 X99.376 Y164.896 E46.17968
G1 X99.868 Y164.896 E46.23460
G1 X64.717 Y129.745 E51.77673
G1 X64.897 Y129.432 E51.81694
G1 X100.361 Y164.896 E57.40832
G1 X100.854 Y164.896 E57.46325
G1 X65.078 Y129.120 E63.10387
G1 X65.258 Y128.807 E63.14409
G1 X101.346 Y164.896 E68.83396
G1 X101.839 Y164.896 E68.88889
G1 X65.481 Y128.537 E74.62132
G1 X65.714 Y128.278 E74.66021
G1 X102.332 Y164.896 E80.43352
G1 X102.825 Y164.896 E80.48845
G1 X65.948 Y128.019 E86.30264
G1 X66.181 Y127.760 E86.34153
G1 X103.317 Y164.896 E92.19660
G1 X103.810 Y164.896 E92.25153
G1 X66.423 Y127.508 E98.14621
G1 X66.675 Y127.268 E98.18506
G1 X104.303 Y164.896 E104.11765
G1 X104.795 Y164.896 E104.17258
G1 X66.960 Y127.061 E110.13786
G1 X67.246 Y126.853 E110.17719
G1 X105.288 Y164.896 E116.17515
G1 X105.781 Y164.896 E116.23008
G1 X67.531 Y126.646 E122.26074
G1 X67.816 Y126.439 E122.30006
G1 X106.273 Y164.896 E128.36341
G1 X106.766 Y164.896 E128.41834
G1 X68.118 Y126.248 E134.51182
G1 X68.459 Y126.096 E134.55342
G1 X107.259 Y164.896 E140.67084
G1 X107.752 Y164.896 E140.72577
G1 X68.800 Y125.944 E146.86711
G1 X69.141 Y125.792 E146.90871
G1 X108.244 Y164.896 E153.07399
G1 X108.737 Y164.896 E153.12892
G1 X69.482 Y125.640 E159.31813
G1 X69.846 Y125.512 E159.36117
G1 X109.230 Y164.896 E165.57067
G1 X109.722 Y164.896 E165.62560
G1 X70.252 Y125.425 E171.84871
G1 X70.658 Y125.339 E171.89503
G1 X110.215 Y164.896 E178.13176
G1 X110.708 Y164.896 E178.18669
G1 X71.065 Y125.253 E184.43704
G1 X71.471 Y125.166 E184.48335
G1 X81.508 Y135.203 E186.06587
G1 X81.902 Y135.104 E186.11111
G1 X111.693 Y164.896 E190.80820
